%
(CNC_FrameRail_A_Aluminium_V1)
(T2  D=0.125 CR=0 TAPER=118deg - ZMIN=-0.3 - drill)
(T3  D=0.125 CR=0 - ZMIN=-0.27 - flat end mill)
G90
G17
G20
G28 G91 Z0
G90

(Drill3)
M9
T2 M6
S9170 M3
G54
M7
G0 X0.6925 Y1.325
Z0.6
Z0.2
G1 Z-0.3 F1
G0 Z0.2
X0.4425 Y0.7
G1 Z-0.3 F1
G0 Z0.2
X0.6925 Y0.45
G1 Z-0.3 F1
G0 Z0.2
Z0.6
M5
G28 G91 Z0
G90

(Circular1)
M9
T3 M6
S8000 M3
G54
M7
G0 X1.1459 Y0.8783
Z0.5
Z0.075
G1 Z0.0075 F24
G18 G2 X1.1584 Z-0.005 I0.0125 K0
G1 X1.1646
G17 G3 X1.1771 Y0.8908 I0 J0.0125
X0.9896 I-0.0938 J0
X1.1771 I0.0938 J0
X1.1646 Y0.9033 I-0.0125 J0
G1 X1.1584
G18 G3 X1.1459 Z0.0075 I0 K0.0125
G0 Z0.1
Y0.8783
Z0.07
G1 Z0.0025 F24
G2 X1.1584 Z-0.01 I0.0125 K0
G1 X1.1646
G17 G3 X1.1771 Y0.8908 I0 J0.0125
X0.9896 I-0.0938 J0
X1.1771 I0.0938 J0
X1.1646 Y0.9033 I-0.0125 J0
G1 X1.1584
G18 G3 X1.1459 Z0.0025 I0 K0.0125
G0 Z0.1
Y0.8783
Z0.065
G1 Z-0.0025 F24
G2 X1.1584 Z-0.015 I0.0125 K0
G1 X1.1646
G17 G3 X1.1771 Y0.8908 I0 J0.0125
X0.9896 I-0.0938 J0
X1.1771 I0.0938 J0
X1.1646 Y0.9033 I-0.0125 J0
G1 X1.1584
G18 G3 X1.1459 Z-0.0025 I0 K0.0125
G0 Z0.1
Y0.8783
Z0.06
G1 Z-0.0075 F24
G2 X1.1584 Z-0.02 I0.0125 K0
G1 X1.1646
G17 G3 X1.1771 Y0.8908 I0 J0.0125
X0.9896 I-0.0938 J0
X1.1771 I0.0938 J0
X1.1646 Y0.9033 I-0.0125 J0
G1 X1.1584
G18 G3 X1.1459 Z-0.0075 I0 K0.0125
G0 Z0.1
Y0.8783
Z0.055
G1 Z-0.0125 F24
G2 X1.1584 Z-0.025 I0.0125 K0
G1 X1.1646
G17 G3 X1.1771 Y0.8908 I0 J0.0125
X0.9896 I-0.0938 J0
X1.1771 I0.0938 J0
X1.1646 Y0.9033 I-0.0125 J0
G1 X1.1584
G18 G3 X1.1459 Z-0.0125 I0 K0.0125
G0 Z0.1
Y0.8783
Z0.05
G1 Z-0.0175 F24
G2 X1.1584 Z-0.03 I0.0125 K0
G1 X1.1646
G17 G3 X1.1771 Y0.8908 I0 J0.0125
X0.9896 I-0.0938 J0
X1.1771 I0.0938 J0
X1.1646 Y0.9033 I-0.0125 J0
G1 X1.1584
G18 G3 X1.1459 Z-0.0175 I0 K0.0125
G0 Z0.1
Y0.8783
Z0.045
G1 Z-0.0225 F24
G2 X1.1584 Z-0.035 I0.0125 K0
G1 X1.1646
G17 G3 X1.1771 Y0.8908 I0 J0.0125
X0.9896 I-0.0938 J0
X1.1771 I0.0938 J0
X1.1646 Y0.9033 I-0.0125 J0
G1 X1.1584
G18 G3 X1.1459 Z-0.0225 I0 K0.0125
G0 Z0.1
Y0.8783
Z0.04
G1 Z-0.0275 F24
G2 X1.1584 Z-0.04 I0.0125 K0
G1 X1.1646
G17 G3 X1.1771 Y0.8908 I0 J0.0125
X0.9896 I-0.0938 J0
X1.1771 I0.0938 J0
X1.1646 Y0.9033 I-0.0125 J0
G1 X1.1584
G18 G3 X1.1459 Z-0.0275 I0 K0.0125
G0 Z0.1
Y0.8783
Z0.035
G1 Z-0.0325 F24
G2 X1.1584 Z-0.045 I0.0125 K0
G1 X1.1646
G17 G3 X1.1771 Y0.8908 I0 J0.0125
X0.9896 I-0.0938 J0
X1.1771 I0.0938 J0
X1.1646 Y0.9033 I-0.0125 J0
G1 X1.1584
G18 G3 X1.1459 Z-0.0325 I0 K0.0125
G0 Z0.1
Y0.8783
Z0.03
G1 Z-0.0375 F24
G2 X1.1584 Z-0.05 I0.0125 K0
G1 X1.1646
G17 G3 X1.1771 Y0.8908 I0 J0.0125
X0.9896 I-0.0938 J0
X1.1771 I0.0938 J0
X1.1646 Y0.9033 I-0.0125 J0
G1 X1.1584
G18 G3 X1.1459 Z-0.0375 I0 K0.0125
G0 Z0.1
Y0.8783
Z0.025
G1 Z-0.0425 F24
G2 X1.1584 Z-0.055 I0.0125 K0
G1 X1.1646
G17 G3 X1.1771 Y0.8908 I0 J0.0125
X0.9896 I-0.0938 J0
X1.1771 I0.0938 J0
X1.1646 Y0.9033 I-0.0125 J0
G1 X1.1584
G18 G3 X1.1459 Z-0.0425 I0 K0.0125
G0 Z0.1
Y0.8783
Z0.02
G1 Z-0.0475 F24
G2 X1.1584 Z-0.06 I0.0125 K0
G1 X1.1646
G17 G3 X1.1771 Y0.8908 I0 J0.0125
X0.9896 I-0.0938 J0
X1.1771 I0.0938 J0
X1.1646 Y0.9033 I-0.0125 J0
G1 X1.1584
G18 G3 X1.1459 Z-0.0475 I0 K0.0125
G0 Z0.1
Y0.8783
Z0.015
G1 Z-0.0525 F24
G2 X1.1584 Z-0.065 I0.0125 K0
G1 X1.1646
G17 G3 X1.1771 Y0.8908 I0 J0.0125
X0.9896 I-0.0938 J0
X1.1771 I0.0938 J0
X1.1646 Y0.9033 I-0.0125 J0
G1 X1.1584
G18 G3 X1.1459 Z-0.0525 I0 K0.0125
G0 Z0.1
Y0.8783
Z0.01
G1 Z-0.0575 F24
G2 X1.1584 Z-0.07 I0.0125 K0
G1 X1.1646
G17 G3 X1.1771 Y0.8908 I0 J0.0125
X0.9896 I-0.0938 J0
X1.1771 I0.0938 J0
X1.1646 Y0.9033 I-0.0125 J0
G1 X1.1584
G18 G3 X1.1459 Z-0.0575 I0 K0.0125
G0 Z0.1
Y0.8783
Z0.005
G1 Z-0.0625 F24
G2 X1.1584 Z-0.075 I0.0125 K0
G1 X1.1646
G17 G3 X1.1771 Y0.8908 I0 J0.0125
X0.9896 I-0.0938 J0
X1.1771 I0.0938 J0
X1.1646 Y0.9033 I-0.0125 J0
G1 X1.1584
G18 G3 X1.1459 Z-0.0625 I0 K0.0125
G0 Z0.1
Y0.8783
Z0
G1 Z-0.0675 F24
G2 X1.1584 Z-0.08 I0.0125 K0
G1 X1.1646
G17 G3 X1.1771 Y0.8908 I0 J0.0125
X0.9896 I-0.0938 J0
X1.1771 I0.0938 J0
X1.1646 Y0.9033 I-0.0125 J0
G1 X1.1584
G18 G3 X1.1459 Z-0.0675 I0 K0.0125
G0 Z0.1
Y0.8783
Z-0.005
G1 Z-0.0725 F24
G2 X1.1584 Z-0.085 I0.0125 K0
G1 X1.1646
G17 G3 X1.1771 Y0.8908 I0 J0.0125
X0.9896 I-0.0938 J0
X1.1771 I0.0938 J0
X1.1646 Y0.9033 I-0.0125 J0
G1 X1.1584
G18 G3 X1.1459 Z-0.0725 I0 K0.0125
G0 Z0.1
Y0.8783
Z-0.01
G1 Z-0.0775 F24
G2 X1.1584 Z-0.09 I0.0125 K0
G1 X1.1646
G17 G3 X1.1771 Y0.8908 I0 J0.0125
X0.9896 I-0.0938 J0
X1.1771 I0.0938 J0
X1.1646 Y0.9033 I-0.0125 J0
G1 X1.1584
G18 G3 X1.1459 Z-0.0775 I0 K0.0125
G0 Z0.1
Y0.8783
Z-0.015
G1 Z-0.0825 F24
G2 X1.1584 Z-0.095 I0.0125 K0
G1 X1.1646
G17 G3 X1.1771 Y0.8908 I0 J0.0125
X0.9896 I-0.0938 J0
X1.1771 I0.0938 J0
X1.1646 Y0.9033 I-0.0125 J0
G1 X1.1584
G18 G3 X1.1459 Z-0.0825 I0 K0.0125
G0 Z0.1
Y0.8783
Z-0.02
G1 Z-0.0875 F24
G2 X1.1584 Z-0.1 I0.0125 K0
G1 X1.1646
G17 G3 X1.1771 Y0.8908 I0 J0.0125
X0.9896 I-0.0938 J0
X1.1771 I0.0938 J0
X1.1646 Y0.9033 I-0.0125 J0
G1 X1.1584
G18 G3 X1.1459 Z-0.0875 I0 K0.0125
G0 Z0.1
Y0.8783
Z-0.025
G1 Z-0.0925 F24
G2 X1.1584 Z-0.105 I0.0125 K0
G1 X1.1646
G17 G3 X1.1771 Y0.8908 I0 J0.0125
X0.9896 I-0.0938 J0
X1.1771 I0.0938 J0
X1.1646 Y0.9033 I-0.0125 J0
G1 X1.1584
G18 G3 X1.1459 Z-0.0925 I0 K0.0125
G0 Z0.1
Y0.8783
Z-0.03
G1 Z-0.0975 F24
G2 X1.1584 Z-0.11 I0.0125 K0
G1 X1.1646
G17 G3 X1.1771 Y0.8908 I0 J0.0125
X0.9896 I-0.0938 J0
X1.1771 I0.0938 J0
X1.1646 Y0.9033 I-0.0125 J0
G1 X1.1584
G18 G3 X1.1459 Z-0.0975 I0 K0.0125
G0 Z0.1
Y0.8783
Z-0.035
G1 Z-0.1025 F24
G2 X1.1584 Z-0.115 I0.0125 K0
G1 X1.1646
G17 G3 X1.1771 Y0.8908 I0 J0.0125
X0.9896 I-0.0938 J0
X1.1771 I0.0938 J0
X1.1646 Y0.9033 I-0.0125 J0
G1 X1.1584
G18 G3 X1.1459 Z-0.1025 I0 K0.0125
G0 Z0.1
Y0.8783
Z-0.04
G1 Z-0.1075 F24
G2 X1.1584 Z-0.12 I0.0125 K0
G1 X1.1646
G17 G3 X1.1771 Y0.8908 I0 J0.0125
X0.9896 I-0.0938 J0
X1.1771 I0.0938 J0
X1.1646 Y0.9033 I-0.0125 J0
G1 X1.1584
G18 G3 X1.1459 Z-0.1075 I0 K0.0125
G0 Z0.1
Y0.8783
Z-0.045
G1 Z-0.1125 F24
G2 X1.1584 Z-0.125 I0.0125 K0
G1 X1.1646
G17 G3 X1.1771 Y0.8908 I0 J0.0125
X0.9896 I-0.0938 J0
X1.1771 I0.0938 J0
X1.1646 Y0.9033 I-0.0125 J0
G1 X1.1584
G18 G3 X1.1459 Z-0.1125 I0 K0.0125
G0 Z0.1
Y0.8783
Z-0.05
G1 Z-0.1175 F24
G2 X1.1584 Z-0.13 I0.0125 K0
G1 X1.1646
G17 G3 X1.1771 Y0.8908 I0 J0.0125
X0.9896 I-0.0938 J0
X1.1771 I0.0938 J0
X1.1646 Y0.9033 I-0.0125 J0
G1 X1.1584
G18 G3 X1.1459 Z-0.1175 I0 K0.0125
G0 Z0.1
Y0.8783
Z-0.055
G1 Z-0.1225 F24
G2 X1.1584 Z-0.135 I0.0125 K0
G1 X1.1646
G17 G3 X1.1771 Y0.8908 I0 J0.0125
X0.9896 I-0.0938 J0
X1.1771 I0.0938 J0
X1.1646 Y0.9033 I-0.0125 J0
G1 X1.1584
G18 G3 X1.1459 Z-0.1225 I0 K0.0125
G0 Z0.1
Y0.8783
Z-0.06
G1 Z-0.1275 F24
G2 X1.1584 Z-0.14 I0.0125 K0
G1 X1.1646
G17 G3 X1.1771 Y0.8908 I0 J0.0125
X0.9896 I-0.0938 J0
X1.1771 I0.0938 J0
X1.1646 Y0.9033 I-0.0125 J0
G1 X1.1584
G18 G3 X1.1459 Z-0.1275 I0 K0.0125
G0 Z0.1
Y0.8783
Z-0.065
G1 Z-0.1325 F24
G2 X1.1584 Z-0.145 I0.0125 K0
G1 X1.1646
G17 G3 X1.1771 Y0.8908 I0 J0.0125
X0.9896 I-0.0938 J0
X1.1771 I0.0938 J0
X1.1646 Y0.9033 I-0.0125 J0
G1 X1.1584
G18 G3 X1.1459 Z-0.1325 I0 K0.0125
G0 Z0.1
Y0.8783
Z-0.07
G1 Z-0.1375 F24
G2 X1.1584 Z-0.15 I0.0125 K0
G1 X1.1646
G17 G3 X1.1771 Y0.8908 I0 J0.0125
X0.9896 I-0.0938 J0
X1.1771 I0.0938 J0
X1.1646 Y0.9033 I-0.0125 J0
G1 X1.1584
G18 G3 X1.1459 Z-0.1375 I0 K0.0125
G0 Z0.1
Y0.8783
Z-0.075
G1 Z-0.1425 F24
G2 X1.1584 Z-0.155 I0.0125 K0
G1 X1.1646
G17 G3 X1.1771 Y0.8908 I0 J0.0125
X0.9896 I-0.0938 J0
X1.1771 I0.0938 J0
X1.1646 Y0.9033 I-0.0125 J0
G1 X1.1584
G18 G3 X1.1459 Z-0.1425 I0 K0.0125
G0 Z0.1
Y0.8783
Z-0.08
G1 Z-0.1475 F24
G2 X1.1584 Z-0.16 I0.0125 K0
G1 X1.1646
G17 G3 X1.1771 Y0.8908 I0 J0.0125
X0.9896 I-0.0938 J0
X1.1771 I0.0938 J0
X1.1646 Y0.9033 I-0.0125 J0
G1 X1.1584
G18 G3 X1.1459 Z-0.1475 I0 K0.0125
G0 Z0.1
Y0.8783
Z-0.085
G1 Z-0.1525 F24
G2 X1.1584 Z-0.165 I0.0125 K0
G1 X1.1646
G17 G3 X1.1771 Y0.8908 I0 J0.0125
X0.9896 I-0.0938 J0
X1.1771 I0.0938 J0
X1.1646 Y0.9033 I-0.0125 J0
G1 X1.1584
G18 G3 X1.1459 Z-0.1525 I0 K0.0125
G0 Z0.1
Y0.8783
Z-0.09
G1 Z-0.1575 F24
G2 X1.1584 Z-0.17 I0.0125 K0
G1 X1.1646
G17 G3 X1.1771 Y0.8908 I0 J0.0125
X0.9896 I-0.0938 J0
X1.1771 I0.0938 J0
X1.1646 Y0.9033 I-0.0125 J0
G1 X1.1584
G18 G3 X1.1459 Z-0.1575 I0 K0.0125
G0 Z0.1
Y0.8783
Z-0.095
G1 Z-0.1625 F24
G2 X1.1584 Z-0.175 I0.0125 K0
G1 X1.1646
G17 G3 X1.1771 Y0.8908 I0 J0.0125
X0.9896 I-0.0938 J0
X1.1771 I0.0938 J0
X1.1646 Y0.9033 I-0.0125 J0
G1 X1.1584
G18 G3 X1.1459 Z-0.1625 I0 K0.0125
G0 Z0.1
Y0.8783
Z-0.1
G1 Z-0.1675 F24
G2 X1.1584 Z-0.18 I0.0125 K0
G1 X1.1646
G17 G3 X1.1771 Y0.8908 I0 J0.0125
X0.9896 I-0.0938 J0
X1.1771 I0.0938 J0
X1.1646 Y0.9033 I-0.0125 J0
G1 X1.1584
G18 G3 X1.1459 Z-0.1675 I0 K0.0125
G0 Z0.1
Y0.8783
Z-0.105
G1 Z-0.1725 F24
G2 X1.1584 Z-0.185 I0.0125 K0
G1 X1.1646
G17 G3 X1.1771 Y0.8908 I0 J0.0125
X0.9896 I-0.0938 J0
X1.1771 I0.0938 J0
X1.1646 Y0.9033 I-0.0125 J0
G1 X1.1584
G18 G3 X1.1459 Z-0.1725 I0 K0.0125
G0 Z0.1
Y0.8783
Z-0.11
G1 Z-0.1775 F24
G2 X1.1584 Z-0.19 I0.0125 K0
G1 X1.1646
G17 G3 X1.1771 Y0.8908 I0 J0.0125
X0.9896 I-0.0938 J0
X1.1771 I0.0938 J0
X1.1646 Y0.9033 I-0.0125 J0
G1 X1.1584
G18 G3 X1.1459 Z-0.1775 I0 K0.0125
G0 Z0.1
Y0.8783
Z-0.115
G1 Z-0.1825 F24
G2 X1.1584 Z-0.195 I0.0125 K0
G1 X1.1646
G17 G3 X1.1771 Y0.8908 I0 J0.0125
X0.9896 I-0.0938 J0
X1.1771 I0.0938 J0
X1.1646 Y0.9033 I-0.0125 J0
G1 X1.1584
G18 G3 X1.1459 Z-0.1825 I0 K0.0125
G0 Z0.1
Y0.8783
Z-0.12
G1 Z-0.1875 F24
G2 X1.1584 Z-0.2 I0.0125 K0
G1 X1.1646
G17 G3 X1.1771 Y0.8908 I0 J0.0125
X0.9896 I-0.0938 J0
X1.1771 I0.0938 J0
X1.1646 Y0.9033 I-0.0125 J0
G1 X1.1584
G18 G3 X1.1459 Z-0.1875 I0 K0.0125
G0 Z0.1
Y0.8783
Z-0.125
G1 Z-0.1925 F24
G2 X1.1584 Z-0.205 I0.0125 K0
G1 X1.1646
G17 G3 X1.1771 Y0.8908 I0 J0.0125
X0.9896 I-0.0938 J0
X1.1771 I0.0938 J0
X1.1646 Y0.9033 I-0.0125 J0
G1 X1.1584
G18 G3 X1.1459 Z-0.1925 I0 K0.0125
G0 Z0.1
Y0.8783
Z-0.13
G1 Z-0.1975 F24
G2 X1.1584 Z-0.21 I0.0125 K0
G1 X1.1646
G17 G3 X1.1771 Y0.8908 I0 J0.0125
X0.9896 I-0.0938 J0
X1.1771 I0.0938 J0
X1.1646 Y0.9033 I-0.0125 J0
G1 X1.1584
G18 G3 X1.1459 Z-0.1975 I0 K0.0125
G0 Z0.1
Y0.8783
Z-0.135
G1 Z-0.2025 F24
G2 X1.1584 Z-0.215 I0.0125 K0
G1 X1.1646
G17 G3 X1.1771 Y0.8908 I0 J0.0125
X0.9896 I-0.0938 J0
X1.1771 I0.0938 J0
X1.1646 Y0.9033 I-0.0125 J0
G1 X1.1584
G18 G3 X1.1459 Z-0.2025 I0 K0.0125
G0 Z0.1
Y0.8783
Z-0.14
G1 Z-0.2075 F24
G2 X1.1584 Z-0.22 I0.0125 K0
G1 X1.1646
G17 G3 X1.1771 Y0.8908 I0 J0.0125
X0.9896 I-0.0938 J0
X1.1771 I0.0938 J0
X1.1646 Y0.9033 I-0.0125 J0
G1 X1.1584
G18 G3 X1.1459 Z-0.2075 I0 K0.0125
G0 Z0.1
Y0.8783
Z-0.145
G1 Z-0.2125 F24
G2 X1.1584 Z-0.225 I0.0125 K0
G1 X1.1646
G17 G3 X1.1771 Y0.8908 I0 J0.0125
X0.9896 I-0.0938 J0
X1.1771 I0.0938 J0
X1.1646 Y0.9033 I-0.0125 J0
G1 X1.1584
G18 G3 X1.1459 Z-0.2125 I0 K0.0125
G0 Z0.1
Y0.8783
Z-0.15
G1 Z-0.2175 F24
G2 X1.1584 Z-0.23 I0.0125 K0
G1 X1.1646
G17 G3 X1.1771 Y0.8908 I0 J0.0125
X0.9896 I-0.0938 J0
X1.1771 I0.0938 J0
X1.1646 Y0.9033 I-0.0125 J0
G1 X1.1584
G18 G3 X1.1459 Z-0.2175 I0 K0.0125
G0 Z0.1
Y0.8783
Z-0.155
G1 Z-0.2225 F24
G2 X1.1584 Z-0.235 I0.0125 K0
G1 X1.1646
G17 G3 X1.1771 Y0.8908 I0 J0.0125
X0.9896 I-0.0938 J0
X1.1771 I0.0938 J0
X1.1646 Y0.9033 I-0.0125 J0
G1 X1.1584
G18 G3 X1.1459 Z-0.2225 I0 K0.0125
G0 Z0.1
Y0.8783
Z-0.16
G1 Z-0.2275 F24
G2 X1.1584 Z-0.24 I0.0125 K0
G1 X1.1646
G17 G3 X1.1771 Y0.8908 I0 J0.0125
X0.9896 I-0.0938 J0
X1.1771 I0.0938 J0
X1.1646 Y0.9033 I-0.0125 J0
G1 X1.1584
G18 G3 X1.1459 Z-0.2275 I0 K0.0125
G0 Z0.1
Y0.8783
Z-0.165
G1 Z-0.2325 F24
G2 X1.1584 Z-0.245 I0.0125 K0
G1 X1.1646
G17 G3 X1.1771 Y0.8908 I0 J0.0125
X0.9896 I-0.0938 J0
X1.1771 I0.0938 J0
X1.1646 Y0.9033 I-0.0125 J0
G1 X1.1584
G18 G3 X1.1459 Z-0.2325 I0 K0.0125
G0 Z0.1
Y0.8783
Z-0.17
G1 Z-0.2375 F24
G2 X1.1584 Z-0.25 I0.0125 K0
G1 X1.1646
G17 G3 X1.1771 Y0.8908 I0 J0.0125
X0.9896 I-0.0938 J0
X1.1771 I0.0938 J0
X1.1646 Y0.9033 I-0.0125 J0
G1 X1.1584
G18 G3 X1.1459 Z-0.2375 I0 K0.0125
G0 Z0.1
Y0.8783
Z-0.175
G1 Z-0.2425 F24
G2 X1.1584 Z-0.255 I0.0125 K0
G1 X1.1646
G17 G3 X1.1771 Y0.8908 I0 J0.0125
X0.9896 I-0.0938 J0
X1.1771 I0.0938 J0
X1.1646 Y0.9033 I-0.0125 J0
G1 X1.1584
G18 G3 X1.1459 Z-0.2425 I0 K0.0125
G0 Z0.1
Y0.8783
Z-0.18
G1 Z-0.2475 F24
G2 X1.1584 Z-0.26 I0.0125 K0
G1 X1.1646
G17 G3 X1.1771 Y0.8908 I0 J0.0125
X0.9896 I-0.0938 J0
X1.1771 I0.0938 J0
X1.1646 Y0.9033 I-0.0125 J0
G1 X1.1584
G18 G3 X1.1459 Z-0.2475 I0 K0.0125
G0 Z0.1
Y0.8783
Z-0.185
G1 Z-0.2525 F24
G2 X1.1584 Z-0.265 I0.0125 K0
G1 X1.1646
G17 G3 X1.1771 Y0.8908 I0 J0.0125
X0.9896 I-0.0938 J0
X1.1771 I0.0938 J0
X1.1646 Y0.9033 I-0.0125 J0
G1 X1.1584
G18 G3 X1.1459 Z-0.2525 I0 K0.0125
G0 Z0.1
Y0.8783
Z-0.19
G1 Z-0.2575 F24
G2 X1.1584 Z-0.27 I0.0125 K0
G1 X1.1646
G17 G3 X1.1771 Y0.8908 I0 J0.0125
X0.9896 I-0.0938 J0
X1.1771 I0.0938 J0
X1.1646 Y0.9033 I-0.0125 J0
G1 X1.1584
G18 G3 X1.1459 Z-0.2575 I0 K0.0125
G0 Z0.1
X1.5357 Y0.875
Z0.075
G1 Z0.0075 F24
G2 X1.5482 Z-0.005 I0.0125 K0
G1 X1.5544
G17 G3 X1.5669 Y0.8875 I0 J0.0125
X1.4439 I-0.0615 J0
X1.5669 I0.0615 J0
X1.5544 Y0.9 I-0.0125 J0
G1 X1.5482
G18 G3 X1.5357 Z0.0075 I0 K0.0125
G0 Z0.1
Y0.875
Z0.07
G1 Z0.0025 F24
G2 X1.5482 Z-0.01 I0.0125 K0
G1 X1.5544
G17 G3 X1.5669 Y0.8875 I0 J0.0125
X1.4439 I-0.0615 J0
X1.5669 I0.0615 J0
X1.5544 Y0.9 I-0.0125 J0
G1 X1.5482
G18 G3 X1.5357 Z0.0025 I0 K0.0125
G0 Z0.1
Y0.875
Z0.065
G1 Z-0.0025 F24
G2 X1.5482 Z-0.015 I0.0125 K0
G1 X1.5544
G17 G3 X1.5669 Y0.8875 I0 J0.0125
X1.4439 I-0.0615 J0
X1.5669 I0.0615 J0
X1.5544 Y0.9 I-0.0125 J0
G1 X1.5482
G18 G3 X1.5357 Z-0.0025 I0 K0.0125
G0 Z0.1
Y0.875
Z0.06
G1 Z-0.0075 F24
G2 X1.5482 Z-0.02 I0.0125 K0
G1 X1.5544
G17 G3 X1.5669 Y0.8875 I0 J0.0125
X1.4439 I-0.0615 J0
X1.5669 I0.0615 J0
X1.5544 Y0.9 I-0.0125 J0
G1 X1.5482
G18 G3 X1.5357 Z-0.0075 I0 K0.0125
G0 Z0.1
Y0.875
Z0.055
G1 Z-0.0125 F24
G2 X1.5482 Z-0.025 I0.0125 K0
G1 X1.5544
G17 G3 X1.5669 Y0.8875 I0 J0.0125
X1.4439 I-0.0615 J0
X1.5669 I0.0615 J0
X1.5544 Y0.9 I-0.0125 J0
G1 X1.5482
G18 G3 X1.5357 Z-0.0125 I0 K0.0125
G0 Z0.1
Y0.875
Z0.05
G1 Z-0.0175 F24
G2 X1.5482 Z-0.03 I0.0125 K0
G1 X1.5544
G17 G3 X1.5669 Y0.8875 I0 J0.0125
X1.4439 I-0.0615 J0
X1.5669 I0.0615 J0
X1.5544 Y0.9 I-0.0125 J0
G1 X1.5482
G18 G3 X1.5357 Z-0.0175 I0 K0.0125
G0 Z0.1
Y0.875
Z0.045
G1 Z-0.0225 F24
G2 X1.5482 Z-0.035 I0.0125 K0
G1 X1.5544
G17 G3 X1.5669 Y0.8875 I0 J0.0125
X1.4439 I-0.0615 J0
X1.5669 I0.0615 J0
X1.5544 Y0.9 I-0.0125 J0
G1 X1.5482
G18 G3 X1.5357 Z-0.0225 I0 K0.0125
G0 Z0.1
Y0.875
Z0.04
G1 Z-0.0275 F24
G2 X1.5482 Z-0.04 I0.0125 K0
G1 X1.5544
G17 G3 X1.5669 Y0.8875 I0 J0.0125
X1.4439 I-0.0615 J0
X1.5669 I0.0615 J0
X1.5544 Y0.9 I-0.0125 J0
G1 X1.5482
G18 G3 X1.5357 Z-0.0275 I0 K0.0125
G0 Z0.1
Y0.875
Z0.035
G1 Z-0.0325 F24
G2 X1.5482 Z-0.045 I0.0125 K0
G1 X1.5544
G17 G3 X1.5669 Y0.8875 I0 J0.0125
X1.4439 I-0.0615 J0
X1.5669 I0.0615 J0
X1.5544 Y0.9 I-0.0125 J0
G1 X1.5482
G18 G3 X1.5357 Z-0.0325 I0 K0.0125
G0 Z0.1
Y0.875
Z0.03
G1 Z-0.0375 F24
G2 X1.5482 Z-0.05 I0.0125 K0
G1 X1.5544
G17 G3 X1.5669 Y0.8875 I0 J0.0125
X1.4439 I-0.0615 J0
X1.5669 I0.0615 J0
X1.5544 Y0.9 I-0.0125 J0
G1 X1.5482
G18 G3 X1.5357 Z-0.0375 I0 K0.0125
G0 Z0.1
Y0.875
Z0.025
G1 Z-0.0425 F24
G2 X1.5482 Z-0.055 I0.0125 K0
G1 X1.5544
G17 G3 X1.5669 Y0.8875 I0 J0.0125
X1.4439 I-0.0615 J0
X1.5669 I0.0615 J0
X1.5544 Y0.9 I-0.0125 J0
G1 X1.5482
G18 G3 X1.5357 Z-0.0425 I0 K0.0125
G0 Z0.1
Y0.875
Z0.02
G1 Z-0.0475 F24
G2 X1.5482 Z-0.06 I0.0125 K0
G1 X1.5544
G17 G3 X1.5669 Y0.8875 I0 J0.0125
X1.4439 I-0.0615 J0
X1.5669 I0.0615 J0
X1.5544 Y0.9 I-0.0125 J0
G1 X1.5482
G18 G3 X1.5357 Z-0.0475 I0 K0.0125
G0 Z0.1
Y0.875
Z0.015
G1 Z-0.0525 F24
G2 X1.5482 Z-0.065 I0.0125 K0
G1 X1.5544
G17 G3 X1.5669 Y0.8875 I0 J0.0125
X1.4439 I-0.0615 J0
X1.5669 I0.0615 J0
X1.5544 Y0.9 I-0.0125 J0
G1 X1.5482
G18 G3 X1.5357 Z-0.0525 I0 K0.0125
G0 Z0.1
Y0.875
Z0.01
G1 Z-0.0575 F24
G2 X1.5482 Z-0.07 I0.0125 K0
G1 X1.5544
G17 G3 X1.5669 Y0.8875 I0 J0.0125
X1.4439 I-0.0615 J0
X1.5669 I0.0615 J0
X1.5544 Y0.9 I-0.0125 J0
G1 X1.5482
G18 G3 X1.5357 Z-0.0575 I0 K0.0125
G0 Z0.1
Y0.875
Z0.005
G1 Z-0.0625 F24
G2 X1.5482 Z-0.075 I0.0125 K0
G1 X1.5544
G17 G3 X1.5669 Y0.8875 I0 J0.0125
X1.4439 I-0.0615 J0
X1.5669 I0.0615 J0
X1.5544 Y0.9 I-0.0125 J0
G1 X1.5482
G18 G3 X1.5357 Z-0.0625 I0 K0.0125
G0 Z0.1
Y0.875
Z0
G1 Z-0.0675 F24
G2 X1.5482 Z-0.08 I0.0125 K0
G1 X1.5544
G17 G3 X1.5669 Y0.8875 I0 J0.0125
X1.4439 I-0.0615 J0
X1.5669 I0.0615 J0
X1.5544 Y0.9 I-0.0125 J0
G1 X1.5482
G18 G3 X1.5357 Z-0.0675 I0 K0.0125
G0 Z0.1
Y0.875
Z-0.005
G1 Z-0.0725 F24
G2 X1.5482 Z-0.085 I0.0125 K0
G1 X1.5544
G17 G3 X1.5669 Y0.8875 I0 J0.0125
X1.4439 I-0.0615 J0
X1.5669 I0.0615 J0
X1.5544 Y0.9 I-0.0125 J0
G1 X1.5482
G18 G3 X1.5357 Z-0.0725 I0 K0.0125
G0 Z0.1
Y0.875
Z-0.01
G1 Z-0.0775 F24
G2 X1.5482 Z-0.09 I0.0125 K0
G1 X1.5544
G17 G3 X1.5669 Y0.8875 I0 J0.0125
X1.4439 I-0.0615 J0
X1.5669 I0.0615 J0
X1.5544 Y0.9 I-0.0125 J0
G1 X1.5482
G18 G3 X1.5357 Z-0.0775 I0 K0.0125
G0 Z0.1
Y0.875
Z-0.015
G1 Z-0.0825 F24
G2 X1.5482 Z-0.095 I0.0125 K0
G1 X1.5544
G17 G3 X1.5669 Y0.8875 I0 J0.0125
X1.4439 I-0.0615 J0
X1.5669 I0.0615 J0
X1.5544 Y0.9 I-0.0125 J0
G1 X1.5482
G18 G3 X1.5357 Z-0.0825 I0 K0.0125
G0 Z0.1
Y0.875
Z-0.02
G1 Z-0.0875 F24
G2 X1.5482 Z-0.1 I0.0125 K0
G1 X1.5544
G17 G3 X1.5669 Y0.8875 I0 J0.0125
X1.4439 I-0.0615 J0
X1.5669 I0.0615 J0
X1.5544 Y0.9 I-0.0125 J0
G1 X1.5482
G18 G3 X1.5357 Z-0.0875 I0 K0.0125
G0 Z0.1
Y0.875
Z-0.025
G1 Z-0.0925 F24
G2 X1.5482 Z-0.105 I0.0125 K0
G1 X1.5544
G17 G3 X1.5669 Y0.8875 I0 J0.0125
X1.4439 I-0.0615 J0
X1.5669 I0.0615 J0
X1.5544 Y0.9 I-0.0125 J0
G1 X1.5482
G18 G3 X1.5357 Z-0.0925 I0 K0.0125
G0 Z0.1
Y0.875
Z-0.03
G1 Z-0.0975 F24
G2 X1.5482 Z-0.11 I0.0125 K0
G1 X1.5544
G17 G3 X1.5669 Y0.8875 I0 J0.0125
X1.4439 I-0.0615 J0
X1.5669 I0.0615 J0
X1.5544 Y0.9 I-0.0125 J0
G1 X1.5482
G18 G3 X1.5357 Z-0.0975 I0 K0.0125
G0 Z0.1
Y0.875
Z-0.035
G1 Z-0.1025 F24
G2 X1.5482 Z-0.115 I0.0125 K0
G1 X1.5544
G17 G3 X1.5669 Y0.8875 I0 J0.0125
X1.4439 I-0.0615 J0
X1.5669 I0.0615 J0
X1.5544 Y0.9 I-0.0125 J0
G1 X1.5482
G18 G3 X1.5357 Z-0.1025 I0 K0.0125
G0 Z0.1
Y0.875
Z-0.04
G1 Z-0.1075 F24
G2 X1.5482 Z-0.12 I0.0125 K0
G1 X1.5544
G17 G3 X1.5669 Y0.8875 I0 J0.0125
X1.4439 I-0.0615 J0
X1.5669 I0.0615 J0
X1.5544 Y0.9 I-0.0125 J0
G1 X1.5482
G18 G3 X1.5357 Z-0.1075 I0 K0.0125
G0 Z0.1
Y0.875
Z-0.045
G1 Z-0.1125 F24
G2 X1.5482 Z-0.125 I0.0125 K0
G1 X1.5544
G17 G3 X1.5669 Y0.8875 I0 J0.0125
X1.4439 I-0.0615 J0
X1.5669 I0.0615 J0
X1.5544 Y0.9 I-0.0125 J0
G1 X1.5482
G18 G3 X1.5357 Z-0.1125 I0 K0.0125
G0 Z0.1
Y0.875
Z-0.05
G1 Z-0.1175 F24
G2 X1.5482 Z-0.13 I0.0125 K0
G1 X1.5544
G17 G3 X1.5669 Y0.8875 I0 J0.0125
X1.4439 I-0.0615 J0
X1.5669 I0.0615 J0
X1.5544 Y0.9 I-0.0125 J0
G1 X1.5482
G18 G3 X1.5357 Z-0.1175 I0 K0.0125
G0 Z0.1
Y0.875
Z-0.055
G1 Z-0.1225 F24
G2 X1.5482 Z-0.135 I0.0125 K0
G1 X1.5544
G17 G3 X1.5669 Y0.8875 I0 J0.0125
X1.4439 I-0.0615 J0
X1.5669 I0.0615 J0
X1.5544 Y0.9 I-0.0125 J0
G1 X1.5482
G18 G3 X1.5357 Z-0.1225 I0 K0.0125
G0 Z0.1
Y0.875
Z-0.06
G1 Z-0.1275 F24
G2 X1.5482 Z-0.14 I0.0125 K0
G1 X1.5544
G17 G3 X1.5669 Y0.8875 I0 J0.0125
X1.4439 I-0.0615 J0
X1.5669 I0.0615 J0
X1.5544 Y0.9 I-0.0125 J0
G1 X1.5482
G18 G3 X1.5357 Z-0.1275 I0 K0.0125
G0 Z0.1
Y0.875
Z-0.065
G1 Z-0.1325 F24
G2 X1.5482 Z-0.145 I0.0125 K0
G1 X1.5544
G17 G3 X1.5669 Y0.8875 I0 J0.0125
X1.4439 I-0.0615 J0
X1.5669 I0.0615 J0
X1.5544 Y0.9 I-0.0125 J0
G1 X1.5482
G18 G3 X1.5357 Z-0.1325 I0 K0.0125
G0 Z0.1
Y0.875
Z-0.07
G1 Z-0.1375 F24
G2 X1.5482 Z-0.15 I0.0125 K0
G1 X1.5544
G17 G3 X1.5669 Y0.8875 I0 J0.0125
X1.4439 I-0.0615 J0
X1.5669 I0.0615 J0
X1.5544 Y0.9 I-0.0125 J0
G1 X1.5482
G18 G3 X1.5357 Z-0.1375 I0 K0.0125
G0 Z0.1
Y0.875
Z-0.075
G1 Z-0.1425 F24
G2 X1.5482 Z-0.155 I0.0125 K0
G1 X1.5544
G17 G3 X1.5669 Y0.8875 I0 J0.0125
X1.4439 I-0.0615 J0
X1.5669 I0.0615 J0
X1.5544 Y0.9 I-0.0125 J0
G1 X1.5482
G18 G3 X1.5357 Z-0.1425 I0 K0.0125
G0 Z0.1
Y0.875
Z-0.08
G1 Z-0.1475 F24
G2 X1.5482 Z-0.16 I0.0125 K0
G1 X1.5544
G17 G3 X1.5669 Y0.8875 I0 J0.0125
X1.4439 I-0.0615 J0
X1.5669 I0.0615 J0
X1.5544 Y0.9 I-0.0125 J0
G1 X1.5482
G18 G3 X1.5357 Z-0.1475 I0 K0.0125
G0 Z0.1
Y0.875
Z-0.085
G1 Z-0.1525 F24
G2 X1.5482 Z-0.165 I0.0125 K0
G1 X1.5544
G17 G3 X1.5669 Y0.8875 I0 J0.0125
X1.4439 I-0.0615 J0
X1.5669 I0.0615 J0
X1.5544 Y0.9 I-0.0125 J0
G1 X1.5482
G18 G3 X1.5357 Z-0.1525 I0 K0.0125
G0 Z0.1
Y0.875
Z-0.09
G1 Z-0.1575 F24
G2 X1.5482 Z-0.17 I0.0125 K0
G1 X1.5544
G17 G3 X1.5669 Y0.8875 I0 J0.0125
X1.4439 I-0.0615 J0
X1.5669 I0.0615 J0
X1.5544 Y0.9 I-0.0125 J0
G1 X1.5482
G18 G3 X1.5357 Z-0.1575 I0 K0.0125
G0 Z0.1
Y0.875
Z-0.095
G1 Z-0.1625 F24
G2 X1.5482 Z-0.175 I0.0125 K0
G1 X1.5544
G17 G3 X1.5669 Y0.8875 I0 J0.0125
X1.4439 I-0.0615 J0
X1.5669 I0.0615 J0
X1.5544 Y0.9 I-0.0125 J0
G1 X1.5482
G18 G3 X1.5357 Z-0.1625 I0 K0.0125
G0 Z0.1
Y0.875
Z-0.1
G1 Z-0.1675 F24
G2 X1.5482 Z-0.18 I0.0125 K0
G1 X1.5544
G17 G3 X1.5669 Y0.8875 I0 J0.0125
X1.4439 I-0.0615 J0
X1.5669 I0.0615 J0
X1.5544 Y0.9 I-0.0125 J0
G1 X1.5482
G18 G3 X1.5357 Z-0.1675 I0 K0.0125
G0 Z0.1
Y0.875
Z-0.105
G1 Z-0.1725 F24
G2 X1.5482 Z-0.185 I0.0125 K0
G1 X1.5544
G17 G3 X1.5669 Y0.8875 I0 J0.0125
X1.4439 I-0.0615 J0
X1.5669 I0.0615 J0
X1.5544 Y0.9 I-0.0125 J0
G1 X1.5482
G18 G3 X1.5357 Z-0.1725 I0 K0.0125
G0 Z0.1
Y0.875
Z-0.11
G1 Z-0.1775 F24
G2 X1.5482 Z-0.19 I0.0125 K0
G1 X1.5544
G17 G3 X1.5669 Y0.8875 I0 J0.0125
X1.4439 I-0.0615 J0
X1.5669 I0.0615 J0
X1.5544 Y0.9 I-0.0125 J0
G1 X1.5482
G18 G3 X1.5357 Z-0.1775 I0 K0.0125
G0 Z0.1
Y0.875
Z-0.115
G1 Z-0.1825 F24
G2 X1.5482 Z-0.195 I0.0125 K0
G1 X1.5544
G17 G3 X1.5669 Y0.8875 I0 J0.0125
X1.4439 I-0.0615 J0
X1.5669 I0.0615 J0
X1.5544 Y0.9 I-0.0125 J0
G1 X1.5482
G18 G3 X1.5357 Z-0.1825 I0 K0.0125
G0 Z0.1
Y0.875
Z-0.12
G1 Z-0.1875 F24
G2 X1.5482 Z-0.2 I0.0125 K0
G1 X1.5544
G17 G3 X1.5669 Y0.8875 I0 J0.0125
X1.4439 I-0.0615 J0
X1.5669 I0.0615 J0
X1.5544 Y0.9 I-0.0125 J0
G1 X1.5482
G18 G3 X1.5357 Z-0.1875 I0 K0.0125
G0 Z0.1
Y0.875
Z-0.125
G1 Z-0.1925 F24
G2 X1.5482 Z-0.205 I0.0125 K0
G1 X1.5544
G17 G3 X1.5669 Y0.8875 I0 J0.0125
X1.4439 I-0.0615 J0
X1.5669 I0.0615 J0
X1.5544 Y0.9 I-0.0125 J0
G1 X1.5482
G18 G3 X1.5357 Z-0.1925 I0 K0.0125
G0 Z0.1
Y0.875
Z-0.13
G1 Z-0.1975 F24
G2 X1.5482 Z-0.21 I0.0125 K0
G1 X1.5544
G17 G3 X1.5669 Y0.8875 I0 J0.0125
X1.4439 I-0.0615 J0
X1.5669 I0.0615 J0
X1.5544 Y0.9 I-0.0125 J0
G1 X1.5482
G18 G3 X1.5357 Z-0.1975 I0 K0.0125
G0 Z0.1
Y0.875
Z-0.135
G1 Z-0.2025 F24
G2 X1.5482 Z-0.215 I0.0125 K0
G1 X1.5544
G17 G3 X1.5669 Y0.8875 I0 J0.0125
X1.4439 I-0.0615 J0
X1.5669 I0.0615 J0
X1.5544 Y0.9 I-0.0125 J0
G1 X1.5482
G18 G3 X1.5357 Z-0.2025 I0 K0.0125
G0 Z0.1
Y0.875
Z-0.14
G1 Z-0.2075 F24
G2 X1.5482 Z-0.22 I0.0125 K0
G1 X1.5544
G17 G3 X1.5669 Y0.8875 I0 J0.0125
X1.4439 I-0.0615 J0
X1.5669 I0.0615 J0
X1.5544 Y0.9 I-0.0125 J0
G1 X1.5482
G18 G3 X1.5357 Z-0.2075 I0 K0.0125
G0 Z0.1
Y0.875
Z-0.145
G1 Z-0.2125 F24
G2 X1.5482 Z-0.225 I0.0125 K0
G1 X1.5544
G17 G3 X1.5669 Y0.8875 I0 J0.0125
X1.4439 I-0.0615 J0
X1.5669 I0.0615 J0
X1.5544 Y0.9 I-0.0125 J0
G1 X1.5482
G18 G3 X1.5357 Z-0.2125 I0 K0.0125
G0 Z0.1
Y0.875
Z-0.15
G1 Z-0.2175 F24
G2 X1.5482 Z-0.23 I0.0125 K0
G1 X1.5544
G17 G3 X1.5669 Y0.8875 I0 J0.0125
X1.4439 I-0.0615 J0
X1.5669 I0.0615 J0
X1.5544 Y0.9 I-0.0125 J0
G1 X1.5482
G18 G3 X1.5357 Z-0.2175 I0 K0.0125
G0 Z0.1
Y0.875
Z-0.155
G1 Z-0.2225 F24
G2 X1.5482 Z-0.235 I0.0125 K0
G1 X1.5544
G17 G3 X1.5669 Y0.8875 I0 J0.0125
X1.4439 I-0.0615 J0
X1.5669 I0.0615 J0
X1.5544 Y0.9 I-0.0125 J0
G1 X1.5482
G18 G3 X1.5357 Z-0.2225 I0 K0.0125
G0 Z0.1
Y0.875
Z-0.16
G1 Z-0.2275 F24
G2 X1.5482 Z-0.24 I0.0125 K0
G1 X1.5544
G17 G3 X1.5669 Y0.8875 I0 J0.0125
X1.4439 I-0.0615 J0
X1.5669 I0.0615 J0
X1.5544 Y0.9 I-0.0125 J0
G1 X1.5482
G18 G3 X1.5357 Z-0.2275 I0 K0.0125
G0 Z0.1
Y0.875
Z-0.165
G1 Z-0.2325 F24
G2 X1.5482 Z-0.245 I0.0125 K0
G1 X1.5544
G17 G3 X1.5669 Y0.8875 I0 J0.0125
X1.4439 I-0.0615 J0
X1.5669 I0.0615 J0
X1.5544 Y0.9 I-0.0125 J0
G1 X1.5482
G18 G3 X1.5357 Z-0.2325 I0 K0.0125
G0 Z0.1
Y0.875
Z-0.17
G1 Z-0.2375 F24
G2 X1.5482 Z-0.25 I0.0125 K0
G1 X1.5544
G17 G3 X1.5669 Y0.8875 I0 J0.0125
X1.4439 I-0.0615 J0
X1.5669 I0.0615 J0
X1.5544 Y0.9 I-0.0125 J0
G1 X1.5482
G18 G3 X1.5357 Z-0.2375 I0 K0.0125
G0 Z0.1
Y0.875
Z-0.175
G1 Z-0.2425 F24
G2 X1.5482 Z-0.255 I0.0125 K0
G1 X1.5544
G17 G3 X1.5669 Y0.8875 I0 J0.0125
X1.4439 I-0.0615 J0
X1.5669 I0.0615 J0
X1.5544 Y0.9 I-0.0125 J0
G1 X1.5482
G18 G3 X1.5357 Z-0.2425 I0 K0.0125
G0 Z0.1
Y0.875
Z-0.18
G1 Z-0.2475 F24
G2 X1.5482 Z-0.26 I0.0125 K0
G1 X1.5544
G17 G3 X1.5669 Y0.8875 I0 J0.0125
X1.4439 I-0.0615 J0
X1.5669 I0.0615 J0
X1.5544 Y0.9 I-0.0125 J0
G1 X1.5482
G18 G3 X1.5357 Z-0.2475 I0 K0.0125
G0 Z0.1
Y0.875
Z-0.185
G1 Z-0.2525 F24
G2 X1.5482 Z-0.265 I0.0125 K0
G1 X1.5544
G17 G3 X1.5669 Y0.8875 I0 J0.0125
X1.4439 I-0.0615 J0
X1.5669 I0.0615 J0
X1.5544 Y0.9 I-0.0125 J0
G1 X1.5482
G18 G3 X1.5357 Z-0.2525 I0 K0.0125
G0 Z0.1
Y0.875
Z-0.1875
G1 Z-0.255 F24
G2 X1.5482 Z-0.2675 I0.0125 K0
G1 X1.5544
G17 G3 X1.5669 Y0.8875 I0 J0.0125
X1.4439 I-0.0615 J0
X1.5669 I0.0615 J0
X1.5544 Y0.9 I-0.0125 J0
G1 X1.5482
G18 G3 X1.5357 Z-0.255 I0 K0.0125
G0 Z0.1
Y0.875
Z-0.19
G1 Z-0.2575 F24
G2 X1.5482 Z-0.27 I0.0125 K0
G1 X1.5544
G17 G3 X1.5669 Y0.8875 I0 J0.0125
X1.4439 I-0.0615 J0
X1.5669 I0.0615 J0
X1.5544 Y0.9 I-0.0125 J0
G1 X1.5482
G18 G3 X1.5357 Z-0.2575 I0 K0.0125
G0 Z0.1
X1.9737
Z0.075
G1 Z0.0075 F24
G3 X1.9612 Z-0.005 I-0.0125 K0
G1 X1.955
G17 G3 X1.9425 Y0.8875 I0 J-0.0125
X2.6925 I0.375 J0
X1.9425 I-0.375 J0
X1.955 Y0.875 I0.0125 J0
G1 X1.9612
G18 G2 X1.9737 Z0.0075 I0 K0.0125
G0 Z0.1
Y0.9
Z0.07
G1 Z0.0025 F24
G3 X1.9612 Z-0.01 I-0.0125 K0
G1 X1.955
G17 G3 X1.9425 Y0.8875 I0 J-0.0125
X2.6925 I0.375 J0
X1.9425 I-0.375 J0
X1.955 Y0.875 I0.0125 J0
G1 X1.9612
G18 G2 X1.9737 Z0.0025 I0 K0.0125
G0 Z0.1
Y0.9
Z0.065
G1 Z-0.0025 F24
G3 X1.9612 Z-0.015 I-0.0125 K0
G1 X1.955
G17 G3 X1.9425 Y0.8875 I0 J-0.0125
X2.6925 I0.375 J0
X1.9425 I-0.375 J0
X1.955 Y0.875 I0.0125 J0
G1 X1.9612
G18 G2 X1.9737 Z-0.0025 I0 K0.0125
G0 Z0.1
Y0.9
Z0.06
G1 Z-0.0075 F24
G3 X1.9612 Z-0.02 I-0.0125 K0
G1 X1.955
G17 G3 X1.9425 Y0.8875 I0 J-0.0125
X2.6925 I0.375 J0
X1.9425 I-0.375 J0
X1.955 Y0.875 I0.0125 J0
G1 X1.9612
G18 G2 X1.9737 Z-0.0075 I0 K0.0125
G0 Z0.1
Y0.9
Z0.055
G1 Z-0.0125 F24
G3 X1.9612 Z-0.025 I-0.0125 K0
G1 X1.955
G17 G3 X1.9425 Y0.8875 I0 J-0.0125
X2.6925 I0.375 J0
X1.9425 I-0.375 J0
X1.955 Y0.875 I0.0125 J0
G1 X1.9612
G18 G2 X1.9737 Z-0.0125 I0 K0.0125
G0 Z0.1
Y0.9
Z0.05
G1 Z-0.0175 F24
G3 X1.9612 Z-0.03 I-0.0125 K0
G1 X1.955
G17 G3 X1.9425 Y0.8875 I0 J-0.0125
X2.6925 I0.375 J0
X1.9425 I-0.375 J0
X1.955 Y0.875 I0.0125 J0
G1 X1.9612
G18 G2 X1.9737 Z-0.0175 I0 K0.0125
G0 Z0.1
Y0.9
Z0.045
G1 Z-0.0225 F24
G3 X1.9612 Z-0.035 I-0.0125 K0
G1 X1.955
G17 G3 X1.9425 Y0.8875 I0 J-0.0125
X2.6925 I0.375 J0
X1.9425 I-0.375 J0
X1.955 Y0.875 I0.0125 J0
G1 X1.9612
G18 G2 X1.9737 Z-0.0225 I0 K0.0125
G0 Z0.1
Y0.9
Z0.04
G1 Z-0.0275 F24
G3 X1.9612 Z-0.04 I-0.0125 K0
G1 X1.955
G17 G3 X1.9425 Y0.8875 I0 J-0.0125
X2.6925 I0.375 J0
X1.9425 I-0.375 J0
X1.955 Y0.875 I0.0125 J0
G1 X1.9612
G18 G2 X1.9737 Z-0.0275 I0 K0.0125
G0 Z0.1
Y0.9
Z0.035
G1 Z-0.0325 F24
G3 X1.9612 Z-0.045 I-0.0125 K0
G1 X1.955
G17 G3 X1.9425 Y0.8875 I0 J-0.0125
X2.6925 I0.375 J0
X1.9425 I-0.375 J0
X1.955 Y0.875 I0.0125 J0
G1 X1.9612
G18 G2 X1.9737 Z-0.0325 I0 K0.0125
G0 Z0.1
Y0.9
Z0.03
G1 Z-0.0375 F24
G3 X1.9612 Z-0.05 I-0.0125 K0
G1 X1.955
G17 G3 X1.9425 Y0.8875 I0 J-0.0125
X2.6925 I0.375 J0
X1.9425 I-0.375 J0
X1.955 Y0.875 I0.0125 J0
G1 X1.9612
G18 G2 X1.9737 Z-0.0375 I0 K0.0125
G0 Z0.1
Y0.9
Z0.025
G1 Z-0.0425 F24
G3 X1.9612 Z-0.055 I-0.0125 K0
G1 X1.955
G17 G3 X1.9425 Y0.8875 I0 J-0.0125
X2.6925 I0.375 J0
X1.9425 I-0.375 J0
X1.955 Y0.875 I0.0125 J0
G1 X1.9612
G18 G2 X1.9737 Z-0.0425 I0 K0.0125
G0 Z0.1
Y0.9
Z0.02
G1 Z-0.0475 F24
G3 X1.9612 Z-0.06 I-0.0125 K0
G1 X1.955
G17 G3 X1.9425 Y0.8875 I0 J-0.0125
X2.6925 I0.375 J0
X1.9425 I-0.375 J0
X1.955 Y0.875 I0.0125 J0
G1 X1.9612
G18 G2 X1.9737 Z-0.0475 I0 K0.0125
G0 Z0.1
Y0.9
Z0.015
G1 Z-0.0525 F24
G3 X1.9612 Z-0.065 I-0.0125 K0
G1 X1.955
G17 G3 X1.9425 Y0.8875 I0 J-0.0125
X2.6925 I0.375 J0
X1.9425 I-0.375 J0
X1.955 Y0.875 I0.0125 J0
G1 X1.9612
G18 G2 X1.9737 Z-0.0525 I0 K0.0125
G0 Z0.1
Y0.9
Z0.01
G1 Z-0.0575 F24
G3 X1.9612 Z-0.07 I-0.0125 K0
G1 X1.955
G17 G3 X1.9425 Y0.8875 I0 J-0.0125
X2.6925 I0.375 J0
X1.9425 I-0.375 J0
X1.955 Y0.875 I0.0125 J0
G1 X1.9612
G18 G2 X1.9737 Z-0.0575 I0 K0.0125
G0 Z0.1
Y0.9
Z0.005
G1 Z-0.0625 F24
G3 X1.9612 Z-0.075 I-0.0125 K0
G1 X1.955
G17 G3 X1.9425 Y0.8875 I0 J-0.0125
X2.6925 I0.375 J0
X1.9425 I-0.375 J0
X1.955 Y0.875 I0.0125 J0
G1 X1.9612
G18 G2 X1.9737 Z-0.0625 I0 K0.0125
G0 Z0.1
Y0.9
Z0
G1 Z-0.0675 F24
G3 X1.9612 Z-0.08 I-0.0125 K0
G1 X1.955
G17 G3 X1.9425 Y0.8875 I0 J-0.0125
X2.6925 I0.375 J0
X1.9425 I-0.375 J0
X1.955 Y0.875 I0.0125 J0
G1 X1.9612
G18 G2 X1.9737 Z-0.0675 I0 K0.0125
G0 Z0.1
Y0.9
Z-0.005
G1 Z-0.0725 F24
G3 X1.9612 Z-0.085 I-0.0125 K0
G1 X1.955
G17 G3 X1.9425 Y0.8875 I0 J-0.0125
X2.6925 I0.375 J0
X1.9425 I-0.375 J0
X1.955 Y0.875 I0.0125 J0
G1 X1.9612
G18 G2 X1.9737 Z-0.0725 I0 K0.0125
G0 Z0.1
Y0.9
Z-0.01
G1 Z-0.0775 F24
G3 X1.9612 Z-0.09 I-0.0125 K0
G1 X1.955
G17 G3 X1.9425 Y0.8875 I0 J-0.0125
X2.6925 I0.375 J0
X1.9425 I-0.375 J0
X1.955 Y0.875 I0.0125 J0
G1 X1.9612
G18 G2 X1.9737 Z-0.0775 I0 K0.0125
G0 Z0.1
Y0.9
Z-0.015
G1 Z-0.0825 F24
G3 X1.9612 Z-0.095 I-0.0125 K0
G1 X1.955
G17 G3 X1.9425 Y0.8875 I0 J-0.0125
X2.6925 I0.375 J0
X1.9425 I-0.375 J0
X1.955 Y0.875 I0.0125 J0
G1 X1.9612
G18 G2 X1.9737 Z-0.0825 I0 K0.0125
G0 Z0.1
Y0.9
Z-0.02
G1 Z-0.0875 F24
G3 X1.9612 Z-0.1 I-0.0125 K0
G1 X1.955
G17 G3 X1.9425 Y0.8875 I0 J-0.0125
X2.6925 I0.375 J0
X1.9425 I-0.375 J0
X1.955 Y0.875 I0.0125 J0
G1 X1.9612
G18 G2 X1.9737 Z-0.0875 I0 K0.0125
G0 Z0.1
Y0.9
Z-0.025
G1 Z-0.0925 F24
G3 X1.9612 Z-0.105 I-0.0125 K0
G1 X1.955
G17 G3 X1.9425 Y0.8875 I0 J-0.0125
X2.6925 I0.375 J0
X1.9425 I-0.375 J0
X1.955 Y0.875 I0.0125 J0
G1 X1.9612
G18 G2 X1.9737 Z-0.0925 I0 K0.0125
G0 Z0.1
Y0.9
Z-0.03
G1 Z-0.0975 F24
G3 X1.9612 Z-0.11 I-0.0125 K0
G1 X1.955
G17 G3 X1.9425 Y0.8875 I0 J-0.0125
X2.6925 I0.375 J0
X1.9425 I-0.375 J0
X1.955 Y0.875 I0.0125 J0
G1 X1.9612
G18 G2 X1.9737 Z-0.0975 I0 K0.0125
G0 Z0.1
Y0.9
Z-0.035
G1 Z-0.1025 F24
G3 X1.9612 Z-0.115 I-0.0125 K0
G1 X1.955
G17 G3 X1.9425 Y0.8875 I0 J-0.0125
X2.6925 I0.375 J0
X1.9425 I-0.375 J0
X1.955 Y0.875 I0.0125 J0
G1 X1.9612
G18 G2 X1.9737 Z-0.1025 I0 K0.0125
G0 Z0.1
Y0.9
Z-0.04
G1 Z-0.1075 F24
G3 X1.9612 Z-0.12 I-0.0125 K0
G1 X1.955
G17 G3 X1.9425 Y0.8875 I0 J-0.0125
X2.6925 I0.375 J0
X1.9425 I-0.375 J0
X1.955 Y0.875 I0.0125 J0
G1 X1.9612
G18 G2 X1.9737 Z-0.1075 I0 K0.0125
G0 Z0.1
Y0.9
Z-0.045
G1 Z-0.1125 F24
G3 X1.9612 Z-0.125 I-0.0125 K0
G1 X1.955
G17 G3 X1.9425 Y0.8875 I0 J-0.0125
X2.6925 I0.375 J0
X1.9425 I-0.375 J0
X1.955 Y0.875 I0.0125 J0
G1 X1.9612
G18 G2 X1.9737 Z-0.1125 I0 K0.0125
G0 Z0.1
Y0.9
Z-0.05
G1 Z-0.1175 F24
G3 X1.9612 Z-0.13 I-0.0125 K0
G1 X1.955
G17 G3 X1.9425 Y0.8875 I0 J-0.0125
X2.6925 I0.375 J0
X1.9425 I-0.375 J0
X1.955 Y0.875 I0.0125 J0
G1 X1.9612
G18 G2 X1.9737 Z-0.1175 I0 K0.0125
G0 Z0.1
Y0.9
Z-0.055
G1 Z-0.1225 F24
G3 X1.9612 Z-0.135 I-0.0125 K0
G1 X1.955
G17 G3 X1.9425 Y0.8875 I0 J-0.0125
X2.6925 I0.375 J0
X1.9425 I-0.375 J0
X1.955 Y0.875 I0.0125 J0
G1 X1.9612
G18 G2 X1.9737 Z-0.1225 I0 K0.0125
G0 Z0.1
Y0.9
Z-0.06
G1 Z-0.1275 F24
G3 X1.9612 Z-0.14 I-0.0125 K0
G1 X1.955
G17 G3 X1.9425 Y0.8875 I0 J-0.0125
X2.6925 I0.375 J0
X1.9425 I-0.375 J0
X1.955 Y0.875 I0.0125 J0
G1 X1.9612
G18 G2 X1.9737 Z-0.1275 I0 K0.0125
G0 Z0.1
Y0.9
Z-0.065
G1 Z-0.1325 F24
G3 X1.9612 Z-0.145 I-0.0125 K0
G1 X1.955
G17 G3 X1.9425 Y0.8875 I0 J-0.0125
X2.6925 I0.375 J0
X1.9425 I-0.375 J0
X1.955 Y0.875 I0.0125 J0
G1 X1.9612
G18 G2 X1.9737 Z-0.1325 I0 K0.0125
G0 Z0.1
Y0.9
Z-0.07
G1 Z-0.1375 F24
G3 X1.9612 Z-0.15 I-0.0125 K0
G1 X1.955
G17 G3 X1.9425 Y0.8875 I0 J-0.0125
X2.6925 I0.375 J0
X1.9425 I-0.375 J0
X1.955 Y0.875 I0.0125 J0
G1 X1.9612
G18 G2 X1.9737 Z-0.1375 I0 K0.0125
G0 Z0.1
Y0.9
Z-0.075
G1 Z-0.1425 F24
G3 X1.9612 Z-0.155 I-0.0125 K0
G1 X1.955
G17 G3 X1.9425 Y0.8875 I0 J-0.0125
X2.6925 I0.375 J0
X1.9425 I-0.375 J0
X1.955 Y0.875 I0.0125 J0
G1 X1.9612
G18 G2 X1.9737 Z-0.1425 I0 K0.0125
G0 Z0.1
Y0.9
Z-0.08
G1 Z-0.1475 F24
G3 X1.9612 Z-0.16 I-0.0125 K0
G1 X1.955
G17 G3 X1.9425 Y0.8875 I0 J-0.0125
X2.6925 I0.375 J0
X1.9425 I-0.375 J0
X1.955 Y0.875 I0.0125 J0
G1 X1.9612
G18 G2 X1.9737 Z-0.1475 I0 K0.0125
G0 Z0.1
Y0.9
Z-0.085
G1 Z-0.1525 F24
G3 X1.9612 Z-0.165 I-0.0125 K0
G1 X1.955
G17 G3 X1.9425 Y0.8875 I0 J-0.0125
X2.6925 I0.375 J0
X1.9425 I-0.375 J0
X1.955 Y0.875 I0.0125 J0
G1 X1.9612
G18 G2 X1.9737 Z-0.1525 I0 K0.0125
G0 Z0.1
Y0.9
Z-0.09
G1 Z-0.1575 F24
G3 X1.9612 Z-0.17 I-0.0125 K0
G1 X1.955
G17 G3 X1.9425 Y0.8875 I0 J-0.0125
X2.6925 I0.375 J0
X1.9425 I-0.375 J0
X1.955 Y0.875 I0.0125 J0
G1 X1.9612
G18 G2 X1.9737 Z-0.1575 I0 K0.0125
G0 Z0.1
Y0.9
Z-0.095
G1 Z-0.1625 F24
G3 X1.9612 Z-0.175 I-0.0125 K0
G1 X1.955
G17 G3 X1.9425 Y0.8875 I0 J-0.0125
X2.6925 I0.375 J0
X1.9425 I-0.375 J0
X1.955 Y0.875 I0.0125 J0
G1 X1.9612
G18 G2 X1.9737 Z-0.1625 I0 K0.0125
G0 Z0.1
Y0.9
Z-0.1
G1 Z-0.1675 F24
G3 X1.9612 Z-0.18 I-0.0125 K0
G1 X1.955
G17 G3 X1.9425 Y0.8875 I0 J-0.0125
X2.6925 I0.375 J0
X1.9425 I-0.375 J0
X1.955 Y0.875 I0.0125 J0
G1 X1.9612
G18 G2 X1.9737 Z-0.1675 I0 K0.0125
G0 Z0.1
Y0.9
Z-0.105
G1 Z-0.1725 F24
G3 X1.9612 Z-0.185 I-0.0125 K0
G1 X1.955
G17 G3 X1.9425 Y0.8875 I0 J-0.0125
X2.6925 I0.375 J0
X1.9425 I-0.375 J0
X1.955 Y0.875 I0.0125 J0
G1 X1.9612
G18 G2 X1.9737 Z-0.1725 I0 K0.0125
G0 Z0.1
Y0.9
Z-0.11
G1 Z-0.1775 F24
G3 X1.9612 Z-0.19 I-0.0125 K0
G1 X1.955
G17 G3 X1.9425 Y0.8875 I0 J-0.0125
X2.6925 I0.375 J0
X1.9425 I-0.375 J0
X1.955 Y0.875 I0.0125 J0
G1 X1.9612
G18 G2 X1.9737 Z-0.1775 I0 K0.0125
G0 Z0.1
Y0.9
Z-0.115
G1 Z-0.1825 F24
G3 X1.9612 Z-0.195 I-0.0125 K0
G1 X1.955
G17 G3 X1.9425 Y0.8875 I0 J-0.0125
X2.6925 I0.375 J0
X1.9425 I-0.375 J0
X1.955 Y0.875 I0.0125 J0
G1 X1.9612
G18 G2 X1.9737 Z-0.1825 I0 K0.0125
G0 Z0.1
Y0.9
Z-0.12
G1 Z-0.1875 F24
G3 X1.9612 Z-0.2 I-0.0125 K0
G1 X1.955
G17 G3 X1.9425 Y0.8875 I0 J-0.0125
X2.6925 I0.375 J0
X1.9425 I-0.375 J0
X1.955 Y0.875 I0.0125 J0
G1 X1.9612
G18 G2 X1.9737 Z-0.1875 I0 K0.0125
G0 Z0.1
Y0.9
Z-0.125
G1 Z-0.1925 F24
G3 X1.9612 Z-0.205 I-0.0125 K0
G1 X1.955
G17 G3 X1.9425 Y0.8875 I0 J-0.0125
X2.6925 I0.375 J0
X1.9425 I-0.375 J0
X1.955 Y0.875 I0.0125 J0
G1 X1.9612
G18 G2 X1.9737 Z-0.1925 I0 K0.0125
G0 Z0.1
Y0.9
Z-0.13
G1 Z-0.1975 F24
G3 X1.9612 Z-0.21 I-0.0125 K0
G1 X1.955
G17 G3 X1.9425 Y0.8875 I0 J-0.0125
X2.6925 I0.375 J0
X1.9425 I-0.375 J0
X1.955 Y0.875 I0.0125 J0
G1 X1.9612
G18 G2 X1.9737 Z-0.1975 I0 K0.0125
G0 Z0.1
Y0.9
Z-0.135
G1 Z-0.2025 F24
G3 X1.9612 Z-0.215 I-0.0125 K0
G1 X1.955
G17 G3 X1.9425 Y0.8875 I0 J-0.0125
X2.6925 I0.375 J0
X1.9425 I-0.375 J0
X1.955 Y0.875 I0.0125 J0
G1 X1.9612
G18 G2 X1.9737 Z-0.2025 I0 K0.0125
G0 Z0.1
Y0.9
Z-0.14
G1 Z-0.2075 F24
G3 X1.9612 Z-0.22 I-0.0125 K0
G1 X1.955
G17 G3 X1.9425 Y0.8875 I0 J-0.0125
X2.6925 I0.375 J0
X1.9425 I-0.375 J0
X1.955 Y0.875 I0.0125 J0
G1 X1.9612
G18 G2 X1.9737 Z-0.2075 I0 K0.0125
G0 Z0.1
Y0.9
Z-0.145
G1 Z-0.2125 F24
G3 X1.9612 Z-0.225 I-0.0125 K0
G1 X1.955
G17 G3 X1.9425 Y0.8875 I0 J-0.0125
X2.6925 I0.375 J0
X1.9425 I-0.375 J0
X1.955 Y0.875 I0.0125 J0
G1 X1.9612
G18 G2 X1.9737 Z-0.2125 I0 K0.0125
G0 Z0.1
Y0.9
Z-0.15
G1 Z-0.2175 F24
G3 X1.9612 Z-0.23 I-0.0125 K0
G1 X1.955
G17 G3 X1.9425 Y0.8875 I0 J-0.0125
X2.6925 I0.375 J0
X1.9425 I-0.375 J0
X1.955 Y0.875 I0.0125 J0
G1 X1.9612
G18 G2 X1.9737 Z-0.2175 I0 K0.0125
G0 Z0.1
Y0.9
Z-0.155
G1 Z-0.2225 F24
G3 X1.9612 Z-0.235 I-0.0125 K0
G1 X1.955
G17 G3 X1.9425 Y0.8875 I0 J-0.0125
X2.6925 I0.375 J0
X1.9425 I-0.375 J0
X1.955 Y0.875 I0.0125 J0
G1 X1.9612
G18 G2 X1.9737 Z-0.2225 I0 K0.0125
G0 Z0.1
Y0.9
Z-0.16
G1 Z-0.2275 F24
G3 X1.9612 Z-0.24 I-0.0125 K0
G1 X1.955
G17 G3 X1.9425 Y0.8875 I0 J-0.0125
X2.6925 I0.375 J0
X1.9425 I-0.375 J0
X1.955 Y0.875 I0.0125 J0
G1 X1.9612
G18 G2 X1.9737 Z-0.2275 I0 K0.0125
G0 Z0.1
Y0.9
Z-0.165
G1 Z-0.2325 F24
G3 X1.9612 Z-0.245 I-0.0125 K0
G1 X1.955
G17 G3 X1.9425 Y0.8875 I0 J-0.0125
X2.6925 I0.375 J0
X1.9425 I-0.375 J0
X1.955 Y0.875 I0.0125 J0
G1 X1.9612
G18 G2 X1.9737 Z-0.2325 I0 K0.0125
G0 Z0.1
Y0.9
Z-0.17
G1 Z-0.2375 F24
G3 X1.9612 Z-0.25 I-0.0125 K0
G1 X1.955
G17 G3 X1.9425 Y0.8875 I0 J-0.0125
X2.6925 I0.375 J0
X1.9425 I-0.375 J0
X1.955 Y0.875 I0.0125 J0
G1 X1.9612
G18 G2 X1.9737 Z-0.2375 I0 K0.0125
G0 Z0.1
Y0.9
Z-0.175
G1 Z-0.2425 F24
G3 X1.9612 Z-0.255 I-0.0125 K0
G1 X1.955
G17 G3 X1.9425 Y0.8875 I0 J-0.0125
X2.6925 I0.375 J0
X1.9425 I-0.375 J0
X1.955 Y0.875 I0.0125 J0
G1 X1.9612
G18 G2 X1.9737 Z-0.2425 I0 K0.0125
G0 Z0.1
Y0.9
Z-0.18
G1 Z-0.2475 F24
G3 X1.9612 Z-0.26 I-0.0125 K0
G1 X1.955
G17 G3 X1.9425 Y0.8875 I0 J-0.0125
X2.6925 I0.375 J0
X1.9425 I-0.375 J0
X1.955 Y0.875 I0.0125 J0
G1 X1.9612
G18 G2 X1.9737 Z-0.2475 I0 K0.0125
G0 Z0.1
Y0.9
Z-0.185
G1 Z-0.2525 F24
G3 X1.9612 Z-0.265 I-0.0125 K0
G1 X1.955
G17 G3 X1.9425 Y0.8875 I0 J-0.0125
X2.6925 I0.375 J0
X1.9425 I-0.375 J0
X1.955 Y0.875 I0.0125 J0
G1 X1.9612
G18 G2 X1.9737 Z-0.2525 I0 K0.0125
G0 Z0.1
Y0.9
Z-0.1875
G1 Z-0.255 F24
G3 X1.9612 Z-0.2675 I-0.0125 K0
G1 X1.955
G17 G3 X1.9425 Y0.8875 I0 J-0.0125
X2.6925 I0.375 J0
X1.9425 I-0.375 J0
X1.955 Y0.875 I0.0125 J0
G1 X1.9612
G18 G2 X1.9737 Z-0.255 I0 K0.0125
G0 Z0.1
Y0.9
Z-0.19
G1 Z-0.2575 F24
G3 X1.9612 Z-0.27 I-0.0125 K0
G1 X1.955
G17 G3 X1.9425 Y0.8875 I0 J-0.0125
X2.6925 I0.375 J0
X1.9425 I-0.375 J0
X1.955 Y0.875 I0.0125 J0
G1 X1.9612
G18 G2 X1.9737 Z-0.2575 I0 K0.0125
G0 Z0.1
X3.2707 Y1.0625
Z0.075
G1 Z0.0075 F24
G3 X3.2582 Z-0.005 I-0.0125 K0
G1 X3.252
G17 G3 X3.2395 Y1.05 I0 J-0.0125
X3.4895 I0.125 J0
X3.2395 I-0.125 J0
X3.252 Y1.0375 I0.0125 J0
G1 X3.2582
G18 G2 X3.2707 Z0.0075 I0 K0.0125
G0 Z0.1
Y1.0625
Z0.07
G1 Z0.0025 F24
G3 X3.2582 Z-0.01 I-0.0125 K0
G1 X3.252
G17 G3 X3.2395 Y1.05 I0 J-0.0125
X3.4895 I0.125 J0
X3.2395 I-0.125 J0
X3.252 Y1.0375 I0.0125 J0
G1 X3.2582
G18 G2 X3.2707 Z0.0025 I0 K0.0125
G0 Z0.1
Y1.0625
Z0.065
G1 Z-0.0025 F24
G3 X3.2582 Z-0.015 I-0.0125 K0
G1 X3.252
G17 G3 X3.2395 Y1.05 I0 J-0.0125
X3.4895 I0.125 J0
X3.2395 I-0.125 J0
X3.252 Y1.0375 I0.0125 J0
G1 X3.2582
G18 G2 X3.2707 Z-0.0025 I0 K0.0125
G0 Z0.1
Y1.0625
Z0.06
G1 Z-0.0075 F24
G3 X3.2582 Z-0.02 I-0.0125 K0
G1 X3.252
G17 G3 X3.2395 Y1.05 I0 J-0.0125
X3.4895 I0.125 J0
X3.2395 I-0.125 J0
X3.252 Y1.0375 I0.0125 J0
G1 X3.2582
G18 G2 X3.2707 Z-0.0075 I0 K0.0125
G0 Z0.1
Y1.0625
Z0.055
G1 Z-0.0125 F24
G3 X3.2582 Z-0.025 I-0.0125 K0
G1 X3.252
G17 G3 X3.2395 Y1.05 I0 J-0.0125
X3.4895 I0.125 J0
X3.2395 I-0.125 J0
X3.252 Y1.0375 I0.0125 J0
G1 X3.2582
G18 G2 X3.2707 Z-0.0125 I0 K0.0125
G0 Z0.1
Y1.0625
Z0.05
G1 Z-0.0175 F24
G3 X3.2582 Z-0.03 I-0.0125 K0
G1 X3.252
G17 G3 X3.2395 Y1.05 I0 J-0.0125
X3.4895 I0.125 J0
X3.2395 I-0.125 J0
X3.252 Y1.0375 I0.0125 J0
G1 X3.2582
G18 G2 X3.2707 Z-0.0175 I0 K0.0125
G0 Z0.1
Y1.0625
Z0.045
G1 Z-0.0225 F24
G3 X3.2582 Z-0.035 I-0.0125 K0
G1 X3.252
G17 G3 X3.2395 Y1.05 I0 J-0.0125
X3.4895 I0.125 J0
X3.2395 I-0.125 J0
X3.252 Y1.0375 I0.0125 J0
G1 X3.2582
G18 G2 X3.2707 Z-0.0225 I0 K0.0125
G0 Z0.1
Y1.0625
Z0.04
G1 Z-0.0275 F24
G3 X3.2582 Z-0.04 I-0.0125 K0
G1 X3.252
G17 G3 X3.2395 Y1.05 I0 J-0.0125
X3.4895 I0.125 J0
X3.2395 I-0.125 J0
X3.252 Y1.0375 I0.0125 J0
G1 X3.2582
G18 G2 X3.2707 Z-0.0275 I0 K0.0125
G0 Z0.1
Y1.0625
Z0.035
G1 Z-0.0325 F24
G3 X3.2582 Z-0.045 I-0.0125 K0
G1 X3.252
G17 G3 X3.2395 Y1.05 I0 J-0.0125
X3.4895 I0.125 J0
X3.2395 I-0.125 J0
X3.252 Y1.0375 I0.0125 J0
G1 X3.2582
G18 G2 X3.2707 Z-0.0325 I0 K0.0125
G0 Z0.1
Y1.0625
Z0.03
G1 Z-0.0375 F24
G3 X3.2582 Z-0.05 I-0.0125 K0
G1 X3.252
G17 G3 X3.2395 Y1.05 I0 J-0.0125
X3.4895 I0.125 J0
X3.2395 I-0.125 J0
X3.252 Y1.0375 I0.0125 J0
G1 X3.2582
G18 G2 X3.2707 Z-0.0375 I0 K0.0125
G0 Z0.1
Y1.0625
Z0.025
G1 Z-0.0425 F24
G3 X3.2582 Z-0.055 I-0.0125 K0
G1 X3.252
G17 G3 X3.2395 Y1.05 I0 J-0.0125
X3.4895 I0.125 J0
X3.2395 I-0.125 J0
X3.252 Y1.0375 I0.0125 J0
G1 X3.2582
G18 G2 X3.2707 Z-0.0425 I0 K0.0125
G0 Z0.1
Y1.0625
Z0.02
G1 Z-0.0475 F24
G3 X3.2582 Z-0.06 I-0.0125 K0
G1 X3.252
G17 G3 X3.2395 Y1.05 I0 J-0.0125
X3.4895 I0.125 J0
X3.2395 I-0.125 J0
X3.252 Y1.0375 I0.0125 J0
G1 X3.2582
G18 G2 X3.2707 Z-0.0475 I0 K0.0125
G0 Z0.1
Y1.0625
Z0.015
G1 Z-0.0525 F24
G3 X3.2582 Z-0.065 I-0.0125 K0
G1 X3.252
G17 G3 X3.2395 Y1.05 I0 J-0.0125
X3.4895 I0.125 J0
X3.2395 I-0.125 J0
X3.252 Y1.0375 I0.0125 J0
G1 X3.2582
G18 G2 X3.2707 Z-0.0525 I0 K0.0125
G0 Z0.1
Y1.0625
Z0.01
G1 Z-0.0575 F24
G3 X3.2582 Z-0.07 I-0.0125 K0
G1 X3.252
G17 G3 X3.2395 Y1.05 I0 J-0.0125
X3.4895 I0.125 J0
X3.2395 I-0.125 J0
X3.252 Y1.0375 I0.0125 J0
G1 X3.2582
G18 G2 X3.2707 Z-0.0575 I0 K0.0125
G0 Z0.1
Y1.0625
Z0.005
G1 Z-0.0625 F24
G3 X3.2582 Z-0.075 I-0.0125 K0
G1 X3.252
G17 G3 X3.2395 Y1.05 I0 J-0.0125
X3.4895 I0.125 J0
X3.2395 I-0.125 J0
X3.252 Y1.0375 I0.0125 J0
G1 X3.2582
G18 G2 X3.2707 Z-0.0625 I0 K0.0125
G0 Z0.1
Y1.0625
Z0
G1 Z-0.0675 F24
G3 X3.2582 Z-0.08 I-0.0125 K0
G1 X3.252
G17 G3 X3.2395 Y1.05 I0 J-0.0125
X3.4895 I0.125 J0
X3.2395 I-0.125 J0
X3.252 Y1.0375 I0.0125 J0
G1 X3.2582
G18 G2 X3.2707 Z-0.0675 I0 K0.0125
G0 Z0.1
Y1.0625
Z-0.005
G1 Z-0.0725 F24
G3 X3.2582 Z-0.085 I-0.0125 K0
G1 X3.252
G17 G3 X3.2395 Y1.05 I0 J-0.0125
X3.4895 I0.125 J0
X3.2395 I-0.125 J0
X3.252 Y1.0375 I0.0125 J0
G1 X3.2582
G18 G2 X3.2707 Z-0.0725 I0 K0.0125
G0 Z0.1
Y1.0625
Z-0.01
G1 Z-0.0775 F24
G3 X3.2582 Z-0.09 I-0.0125 K0
G1 X3.252
G17 G3 X3.2395 Y1.05 I0 J-0.0125
X3.4895 I0.125 J0
X3.2395 I-0.125 J0
X3.252 Y1.0375 I0.0125 J0
G1 X3.2582
G18 G2 X3.2707 Z-0.0775 I0 K0.0125
G0 Z0.1
Y1.0625
Z-0.015
G1 Z-0.0825 F24
G3 X3.2582 Z-0.095 I-0.0125 K0
G1 X3.252
G17 G3 X3.2395 Y1.05 I0 J-0.0125
X3.4895 I0.125 J0
X3.2395 I-0.125 J0
X3.252 Y1.0375 I0.0125 J0
G1 X3.2582
G18 G2 X3.2707 Z-0.0825 I0 K0.0125
G0 Z0.1
Y1.0625
Z-0.02
G1 Z-0.0875 F24
G3 X3.2582 Z-0.1 I-0.0125 K0
G1 X3.252
G17 G3 X3.2395 Y1.05 I0 J-0.0125
X3.4895 I0.125 J0
X3.2395 I-0.125 J0
X3.252 Y1.0375 I0.0125 J0
G1 X3.2582
G18 G2 X3.2707 Z-0.0875 I0 K0.0125
G0 Z0.1
Y1.0625
Z-0.025
G1 Z-0.0925 F24
G3 X3.2582 Z-0.105 I-0.0125 K0
G1 X3.252
G17 G3 X3.2395 Y1.05 I0 J-0.0125
X3.4895 I0.125 J0
X3.2395 I-0.125 J0
X3.252 Y1.0375 I0.0125 J0
G1 X3.2582
G18 G2 X3.2707 Z-0.0925 I0 K0.0125
G0 Z0.1
Y1.0625
Z-0.03
G1 Z-0.0975 F24
G3 X3.2582 Z-0.11 I-0.0125 K0
G1 X3.252
G17 G3 X3.2395 Y1.05 I0 J-0.0125
X3.4895 I0.125 J0
X3.2395 I-0.125 J0
X3.252 Y1.0375 I0.0125 J0
G1 X3.2582
G18 G2 X3.2707 Z-0.0975 I0 K0.0125
G0 Z0.1
Y1.0625
Z-0.035
G1 Z-0.1025 F24
G3 X3.2582 Z-0.115 I-0.0125 K0
G1 X3.252
G17 G3 X3.2395 Y1.05 I0 J-0.0125
X3.4895 I0.125 J0
X3.2395 I-0.125 J0
X3.252 Y1.0375 I0.0125 J0
G1 X3.2582
G18 G2 X3.2707 Z-0.1025 I0 K0.0125
G0 Z0.1
Y1.0625
Z-0.04
G1 Z-0.1075 F24
G3 X3.2582 Z-0.12 I-0.0125 K0
G1 X3.252
G17 G3 X3.2395 Y1.05 I0 J-0.0125
X3.4895 I0.125 J0
X3.2395 I-0.125 J0
X3.252 Y1.0375 I0.0125 J0
G1 X3.2582
G18 G2 X3.2707 Z-0.1075 I0 K0.0125
G0 Z0.1
Y1.0625
Z-0.045
G1 Z-0.1125 F24
G3 X3.2582 Z-0.125 I-0.0125 K0
G1 X3.252
G17 G3 X3.2395 Y1.05 I0 J-0.0125
X3.4895 I0.125 J0
X3.2395 I-0.125 J0
X3.252 Y1.0375 I0.0125 J0
G1 X3.2582
G18 G2 X3.2707 Z-0.1125 I0 K0.0125
G0 Z0.1
Y1.0625
Z-0.05
G1 Z-0.1175 F24
G3 X3.2582 Z-0.13 I-0.0125 K0
G1 X3.252
G17 G3 X3.2395 Y1.05 I0 J-0.0125
X3.4895 I0.125 J0
X3.2395 I-0.125 J0
X3.252 Y1.0375 I0.0125 J0
G1 X3.2582
G18 G2 X3.2707 Z-0.1175 I0 K0.0125
G0 Z0.1
Y1.0625
Z-0.055
G1 Z-0.1225 F24
G3 X3.2582 Z-0.135 I-0.0125 K0
G1 X3.252
G17 G3 X3.2395 Y1.05 I0 J-0.0125
X3.4895 I0.125 J0
X3.2395 I-0.125 J0
X3.252 Y1.0375 I0.0125 J0
G1 X3.2582
G18 G2 X3.2707 Z-0.1225 I0 K0.0125
G0 Z0.1
Y1.0625
Z-0.06
G1 Z-0.1275 F24
G3 X3.2582 Z-0.14 I-0.0125 K0
G1 X3.252
G17 G3 X3.2395 Y1.05 I0 J-0.0125
X3.4895 I0.125 J0
X3.2395 I-0.125 J0
X3.252 Y1.0375 I0.0125 J0
G1 X3.2582
G18 G2 X3.2707 Z-0.1275 I0 K0.0125
G0 Z0.1
Y1.0625
Z-0.065
G1 Z-0.1325 F24
G3 X3.2582 Z-0.145 I-0.0125 K0
G1 X3.252
G17 G3 X3.2395 Y1.05 I0 J-0.0125
X3.4895 I0.125 J0
X3.2395 I-0.125 J0
X3.252 Y1.0375 I0.0125 J0
G1 X3.2582
G18 G2 X3.2707 Z-0.1325 I0 K0.0125
G0 Z0.1
Y1.0625
Z-0.07
G1 Z-0.1375 F24
G3 X3.2582 Z-0.15 I-0.0125 K0
G1 X3.252
G17 G3 X3.2395 Y1.05 I0 J-0.0125
X3.4895 I0.125 J0
X3.2395 I-0.125 J0
X3.252 Y1.0375 I0.0125 J0
G1 X3.2582
G18 G2 X3.2707 Z-0.1375 I0 K0.0125
G0 Z0.1
Y1.0625
Z-0.075
G1 Z-0.1425 F24
G3 X3.2582 Z-0.155 I-0.0125 K0
G1 X3.252
G17 G3 X3.2395 Y1.05 I0 J-0.0125
X3.4895 I0.125 J0
X3.2395 I-0.125 J0
X3.252 Y1.0375 I0.0125 J0
G1 X3.2582
G18 G2 X3.2707 Z-0.1425 I0 K0.0125
G0 Z0.1
Y1.0625
Z-0.08
G1 Z-0.1475 F24
G3 X3.2582 Z-0.16 I-0.0125 K0
G1 X3.252
G17 G3 X3.2395 Y1.05 I0 J-0.0125
X3.4895 I0.125 J0
X3.2395 I-0.125 J0
X3.252 Y1.0375 I0.0125 J0
G1 X3.2582
G18 G2 X3.2707 Z-0.1475 I0 K0.0125
G0 Z0.1
Y1.0625
Z-0.085
G1 Z-0.1525 F24
G3 X3.2582 Z-0.165 I-0.0125 K0
G1 X3.252
G17 G3 X3.2395 Y1.05 I0 J-0.0125
X3.4895 I0.125 J0
X3.2395 I-0.125 J0
X3.252 Y1.0375 I0.0125 J0
G1 X3.2582
G18 G2 X3.2707 Z-0.1525 I0 K0.0125
G0 Z0.1
Y1.0625
Z-0.09
G1 Z-0.1575 F24
G3 X3.2582 Z-0.17 I-0.0125 K0
G1 X3.252
G17 G3 X3.2395 Y1.05 I0 J-0.0125
X3.4895 I0.125 J0
X3.2395 I-0.125 J0
X3.252 Y1.0375 I0.0125 J0
G1 X3.2582
G18 G2 X3.2707 Z-0.1575 I0 K0.0125
G0 Z0.1
Y1.0625
Z-0.095
G1 Z-0.1625 F24
G3 X3.2582 Z-0.175 I-0.0125 K0
G1 X3.252
G17 G3 X3.2395 Y1.05 I0 J-0.0125
X3.4895 I0.125 J0
X3.2395 I-0.125 J0
X3.252 Y1.0375 I0.0125 J0
G1 X3.2582
G18 G2 X3.2707 Z-0.1625 I0 K0.0125
G0 Z0.1
Y1.0625
Z-0.1
G1 Z-0.1675 F24
G3 X3.2582 Z-0.18 I-0.0125 K0
G1 X3.252
G17 G3 X3.2395 Y1.05 I0 J-0.0125
X3.4895 I0.125 J0
X3.2395 I-0.125 J0
X3.252 Y1.0375 I0.0125 J0
G1 X3.2582
G18 G2 X3.2707 Z-0.1675 I0 K0.0125
G0 Z0.1
Y1.0625
Z-0.105
G1 Z-0.1725 F24
G3 X3.2582 Z-0.185 I-0.0125 K0
G1 X3.252
G17 G3 X3.2395 Y1.05 I0 J-0.0125
X3.4895 I0.125 J0
X3.2395 I-0.125 J0
X3.252 Y1.0375 I0.0125 J0
G1 X3.2582
G18 G2 X3.2707 Z-0.1725 I0 K0.0125
G0 Z0.1
Y1.0625
Z-0.11
G1 Z-0.1775 F24
G3 X3.2582 Z-0.19 I-0.0125 K0
G1 X3.252
G17 G3 X3.2395 Y1.05 I0 J-0.0125
X3.4895 I0.125 J0
X3.2395 I-0.125 J0
X3.252 Y1.0375 I0.0125 J0
G1 X3.2582
G18 G2 X3.2707 Z-0.1775 I0 K0.0125
G0 Z0.1
Y1.0625
Z-0.115
G1 Z-0.1825 F24
G3 X3.2582 Z-0.195 I-0.0125 K0
G1 X3.252
G17 G3 X3.2395 Y1.05 I0 J-0.0125
X3.4895 I0.125 J0
X3.2395 I-0.125 J0
X3.252 Y1.0375 I0.0125 J0
G1 X3.2582
G18 G2 X3.2707 Z-0.1825 I0 K0.0125
G0 Z0.1
Y1.0625
Z-0.12
G1 Z-0.1875 F24
G3 X3.2582 Z-0.2 I-0.0125 K0
G1 X3.252
G17 G3 X3.2395 Y1.05 I0 J-0.0125
X3.4895 I0.125 J0
X3.2395 I-0.125 J0
X3.252 Y1.0375 I0.0125 J0
G1 X3.2582
G18 G2 X3.2707 Z-0.1875 I0 K0.0125
G0 Z0.1
Y1.0625
Z-0.125
G1 Z-0.1925 F24
G3 X3.2582 Z-0.205 I-0.0125 K0
G1 X3.252
G17 G3 X3.2395 Y1.05 I0 J-0.0125
X3.4895 I0.125 J0
X3.2395 I-0.125 J0
X3.252 Y1.0375 I0.0125 J0
G1 X3.2582
G18 G2 X3.2707 Z-0.1925 I0 K0.0125
G0 Z0.1
Y1.0625
Z-0.13
G1 Z-0.1975 F24
G3 X3.2582 Z-0.21 I-0.0125 K0
G1 X3.252
G17 G3 X3.2395 Y1.05 I0 J-0.0125
X3.4895 I0.125 J0
X3.2395 I-0.125 J0
X3.252 Y1.0375 I0.0125 J0
G1 X3.2582
G18 G2 X3.2707 Z-0.1975 I0 K0.0125
G0 Z0.1
Y1.0625
Z-0.135
G1 Z-0.2025 F24
G3 X3.2582 Z-0.215 I-0.0125 K0
G1 X3.252
G17 G3 X3.2395 Y1.05 I0 J-0.0125
X3.4895 I0.125 J0
X3.2395 I-0.125 J0
X3.252 Y1.0375 I0.0125 J0
G1 X3.2582
G18 G2 X3.2707 Z-0.2025 I0 K0.0125
G0 Z0.1
Y1.0625
Z-0.14
G1 Z-0.2075 F24
G3 X3.2582 Z-0.22 I-0.0125 K0
G1 X3.252
G17 G3 X3.2395 Y1.05 I0 J-0.0125
X3.4895 I0.125 J0
X3.2395 I-0.125 J0
X3.252 Y1.0375 I0.0125 J0
G1 X3.2582
G18 G2 X3.2707 Z-0.2075 I0 K0.0125
G0 Z0.1
Y1.0625
Z-0.145
G1 Z-0.2125 F24
G3 X3.2582 Z-0.225 I-0.0125 K0
G1 X3.252
G17 G3 X3.2395 Y1.05 I0 J-0.0125
X3.4895 I0.125 J0
X3.2395 I-0.125 J0
X3.252 Y1.0375 I0.0125 J0
G1 X3.2582
G18 G2 X3.2707 Z-0.2125 I0 K0.0125
G0 Z0.1
Y1.0625
Z-0.15
G1 Z-0.2175 F24
G3 X3.2582 Z-0.23 I-0.0125 K0
G1 X3.252
G17 G3 X3.2395 Y1.05 I0 J-0.0125
X3.4895 I0.125 J0
X3.2395 I-0.125 J0
X3.252 Y1.0375 I0.0125 J0
G1 X3.2582
G18 G2 X3.2707 Z-0.2175 I0 K0.0125
G0 Z0.1
Y1.0625
Z-0.155
G1 Z-0.2225 F24
G3 X3.2582 Z-0.235 I-0.0125 K0
G1 X3.252
G17 G3 X3.2395 Y1.05 I0 J-0.0125
X3.4895 I0.125 J0
X3.2395 I-0.125 J0
X3.252 Y1.0375 I0.0125 J0
G1 X3.2582
G18 G2 X3.2707 Z-0.2225 I0 K0.0125
G0 Z0.1
Y1.0625
Z-0.16
G1 Z-0.2275 F24
G3 X3.2582 Z-0.24 I-0.0125 K0
G1 X3.252
G17 G3 X3.2395 Y1.05 I0 J-0.0125
X3.4895 I0.125 J0
X3.2395 I-0.125 J0
X3.252 Y1.0375 I0.0125 J0
G1 X3.2582
G18 G2 X3.2707 Z-0.2275 I0 K0.0125
G0 Z0.1
Y1.0625
Z-0.165
G1 Z-0.2325 F24
G3 X3.2582 Z-0.245 I-0.0125 K0
G1 X3.252
G17 G3 X3.2395 Y1.05 I0 J-0.0125
X3.4895 I0.125 J0
X3.2395 I-0.125 J0
X3.252 Y1.0375 I0.0125 J0
G1 X3.2582
G18 G2 X3.2707 Z-0.2325 I0 K0.0125
G0 Z0.1
Y1.0625
Z-0.17
G1 Z-0.2375 F24
G3 X3.2582 Z-0.25 I-0.0125 K0
G1 X3.252
G17 G3 X3.2395 Y1.05 I0 J-0.0125
X3.4895 I0.125 J0
X3.2395 I-0.125 J0
X3.252 Y1.0375 I0.0125 J0
G1 X3.2582
G18 G2 X3.2707 Z-0.2375 I0 K0.0125
G0 Z0.1
Y1.0625
Z-0.175
G1 Z-0.2425 F24
G3 X3.2582 Z-0.255 I-0.0125 K0
G1 X3.252
G17 G3 X3.2395 Y1.05 I0 J-0.0125
X3.4895 I0.125 J0
X3.2395 I-0.125 J0
X3.252 Y1.0375 I0.0125 J0
G1 X3.2582
G18 G2 X3.2707 Z-0.2425 I0 K0.0125
G0 Z0.1
Y1.0625
Z-0.18
G1 Z-0.2475 F24
G3 X3.2582 Z-0.26 I-0.0125 K0
G1 X3.252
G17 G3 X3.2395 Y1.05 I0 J-0.0125
X3.4895 I0.125 J0
X3.2395 I-0.125 J0
X3.252 Y1.0375 I0.0125 J0
G1 X3.2582
G18 G2 X3.2707 Z-0.2475 I0 K0.0125
G0 Z0.1
Y1.0625
Z-0.185
G1 Z-0.2525 F24
G3 X3.2582 Z-0.265 I-0.0125 K0
G1 X3.252
G17 G3 X3.2395 Y1.05 I0 J-0.0125
X3.4895 I0.125 J0
X3.2395 I-0.125 J0
X3.252 Y1.0375 I0.0125 J0
G1 X3.2582
G18 G2 X3.2707 Z-0.2525 I0 K0.0125
G0 Z0.1
Y1.0625
Z-0.1875
G1 Z-0.255 F24
G3 X3.2582 Z-0.2675 I-0.0125 K0
G1 X3.252
G17 G3 X3.2395 Y1.05 I0 J-0.0125
X3.4895 I0.125 J0
X3.2395 I-0.125 J0
X3.252 Y1.0375 I0.0125 J0
G1 X3.2582
G18 G2 X3.2707 Z-0.255 I0 K0.0125
G0 Z0.1
Y1.0625
Z-0.19
G1 Z-0.2575 F24
G3 X3.2582 Z-0.27 I-0.0125 K0
G1 X3.252
G17 G3 X3.2395 Y1.05 I0 J-0.0125
X3.4895 I0.125 J0
X3.2395 I-0.125 J0
X3.252 Y1.0375 I0.0125 J0
G1 X3.2582
G18 G2 X3.2707 Z-0.2575 I0 K0.0125
G0 Z0.1
X4.5987 Y0.9
Z0.075
G1 Z0.0075 F24
G3 X4.5862 Z-0.005 I-0.0125 K0
G1 X4.58
G17 G3 X4.5675 Y0.8875 I0 J-0.0125
X5.0675 I0.25 J0
X4.5675 I-0.25 J0
X4.58 Y0.875 I0.0125 J0
G1 X4.5862
G18 G2 X4.5987 Z0.0075 I0 K0.0125
G0 Z0.1
Y0.9
Z0.07
G1 Z0.0025 F24
G3 X4.5862 Z-0.01 I-0.0125 K0
G1 X4.58
G17 G3 X4.5675 Y0.8875 I0 J-0.0125
X5.0675 I0.25 J0
X4.5675 I-0.25 J0
X4.58 Y0.875 I0.0125 J0
G1 X4.5862
G18 G2 X4.5987 Z0.0025 I0 K0.0125
G0 Z0.1
Y0.9
Z0.065
G1 Z-0.0025 F24
G3 X4.5862 Z-0.015 I-0.0125 K0
G1 X4.58
G17 G3 X4.5675 Y0.8875 I0 J-0.0125
X5.0675 I0.25 J0
X4.5675 I-0.25 J0
X4.58 Y0.875 I0.0125 J0
G1 X4.5862
G18 G2 X4.5987 Z-0.0025 I0 K0.0125
G0 Z0.1
Y0.9
Z0.06
G1 Z-0.0075 F24
G3 X4.5862 Z-0.02 I-0.0125 K0
G1 X4.58
G17 G3 X4.5675 Y0.8875 I0 J-0.0125
X5.0675 I0.25 J0
X4.5675 I-0.25 J0
X4.58 Y0.875 I0.0125 J0
G1 X4.5862
G18 G2 X4.5987 Z-0.0075 I0 K0.0125
G0 Z0.1
Y0.9
Z0.055
G1 Z-0.0125 F24
G3 X4.5862 Z-0.025 I-0.0125 K0
G1 X4.58
G17 G3 X4.5675 Y0.8875 I0 J-0.0125
X5.0675 I0.25 J0
X4.5675 I-0.25 J0
X4.58 Y0.875 I0.0125 J0
G1 X4.5862
G18 G2 X4.5987 Z-0.0125 I0 K0.0125
G0 Z0.1
Y0.9
Z0.05
G1 Z-0.0175 F24
G3 X4.5862 Z-0.03 I-0.0125 K0
G1 X4.58
G17 G3 X4.5675 Y0.8875 I0 J-0.0125
X5.0675 I0.25 J0
X4.5675 I-0.25 J0
X4.58 Y0.875 I0.0125 J0
G1 X4.5862
G18 G2 X4.5987 Z-0.0175 I0 K0.0125
G0 Z0.1
Y0.9
Z0.045
G1 Z-0.0225 F24
G3 X4.5862 Z-0.035 I-0.0125 K0
G1 X4.58
G17 G3 X4.5675 Y0.8875 I0 J-0.0125
X5.0675 I0.25 J0
X4.5675 I-0.25 J0
X4.58 Y0.875 I0.0125 J0
G1 X4.5862
G18 G2 X4.5987 Z-0.0225 I0 K0.0125
G0 Z0.1
Y0.9
Z0.04
G1 Z-0.0275 F24
G3 X4.5862 Z-0.04 I-0.0125 K0
G1 X4.58
G17 G3 X4.5675 Y0.8875 I0 J-0.0125
X5.0675 I0.25 J0
X4.5675 I-0.25 J0
X4.58 Y0.875 I0.0125 J0
G1 X4.5862
G18 G2 X4.5987 Z-0.0275 I0 K0.0125
G0 Z0.1
Y0.9
Z0.035
G1 Z-0.0325 F24
G3 X4.5862 Z-0.045 I-0.0125 K0
G1 X4.58
G17 G3 X4.5675 Y0.8875 I0 J-0.0125
X5.0675 I0.25 J0
X4.5675 I-0.25 J0
X4.58 Y0.875 I0.0125 J0
G1 X4.5862
G18 G2 X4.5987 Z-0.0325 I0 K0.0125
G0 Z0.1
Y0.9
Z0.03
G1 Z-0.0375 F24
G3 X4.5862 Z-0.05 I-0.0125 K0
G1 X4.58
G17 G3 X4.5675 Y0.8875 I0 J-0.0125
X5.0675 I0.25 J0
X4.5675 I-0.25 J0
X4.58 Y0.875 I0.0125 J0
G1 X4.5862
G18 G2 X4.5987 Z-0.0375 I0 K0.0125
G0 Z0.1
Y0.9
Z0.025
G1 Z-0.0425 F24
G3 X4.5862 Z-0.055 I-0.0125 K0
G1 X4.58
G17 G3 X4.5675 Y0.8875 I0 J-0.0125
X5.0675 I0.25 J0
X4.5675 I-0.25 J0
X4.58 Y0.875 I0.0125 J0
G1 X4.5862
G18 G2 X4.5987 Z-0.0425 I0 K0.0125
G0 Z0.1
Y0.9
Z0.02
G1 Z-0.0475 F24
G3 X4.5862 Z-0.06 I-0.0125 K0
G1 X4.58
G17 G3 X4.5675 Y0.8875 I0 J-0.0125
X5.0675 I0.25 J0
X4.5675 I-0.25 J0
X4.58 Y0.875 I0.0125 J0
G1 X4.5862
G18 G2 X4.5987 Z-0.0475 I0 K0.0125
G0 Z0.1
Y0.9
Z0.015
G1 Z-0.0525 F24
G3 X4.5862 Z-0.065 I-0.0125 K0
G1 X4.58
G17 G3 X4.5675 Y0.8875 I0 J-0.0125
X5.0675 I0.25 J0
X4.5675 I-0.25 J0
X4.58 Y0.875 I0.0125 J0
G1 X4.5862
G18 G2 X4.5987 Z-0.0525 I0 K0.0125
G0 Z0.1
Y0.9
Z0.01
G1 Z-0.0575 F24
G3 X4.5862 Z-0.07 I-0.0125 K0
G1 X4.58
G17 G3 X4.5675 Y0.8875 I0 J-0.0125
X5.0675 I0.25 J0
X4.5675 I-0.25 J0
X4.58 Y0.875 I0.0125 J0
G1 X4.5862
G18 G2 X4.5987 Z-0.0575 I0 K0.0125
G0 Z0.1
Y0.9
Z0.005
G1 Z-0.0625 F24
G3 X4.5862 Z-0.075 I-0.0125 K0
G1 X4.58
G17 G3 X4.5675 Y0.8875 I0 J-0.0125
X5.0675 I0.25 J0
X4.5675 I-0.25 J0
X4.58 Y0.875 I0.0125 J0
G1 X4.5862
G18 G2 X4.5987 Z-0.0625 I0 K0.0125
G0 Z0.1
Y0.9
Z0
G1 Z-0.0675 F24
G3 X4.5862 Z-0.08 I-0.0125 K0
G1 X4.58
G17 G3 X4.5675 Y0.8875 I0 J-0.0125
X5.0675 I0.25 J0
X4.5675 I-0.25 J0
X4.58 Y0.875 I0.0125 J0
G1 X4.5862
G18 G2 X4.5987 Z-0.0675 I0 K0.0125
G0 Z0.1
Y0.9
Z-0.005
G1 Z-0.0725 F24
G3 X4.5862 Z-0.085 I-0.0125 K0
G1 X4.58
G17 G3 X4.5675 Y0.8875 I0 J-0.0125
X5.0675 I0.25 J0
X4.5675 I-0.25 J0
X4.58 Y0.875 I0.0125 J0
G1 X4.5862
G18 G2 X4.5987 Z-0.0725 I0 K0.0125
G0 Z0.1
Y0.9
Z-0.01
G1 Z-0.0775 F24
G3 X4.5862 Z-0.09 I-0.0125 K0
G1 X4.58
G17 G3 X4.5675 Y0.8875 I0 J-0.0125
X5.0675 I0.25 J0
X4.5675 I-0.25 J0
X4.58 Y0.875 I0.0125 J0
G1 X4.5862
G18 G2 X4.5987 Z-0.0775 I0 K0.0125
G0 Z0.1
Y0.9
Z-0.015
G1 Z-0.0825 F24
G3 X4.5862 Z-0.095 I-0.0125 K0
G1 X4.58
G17 G3 X4.5675 Y0.8875 I0 J-0.0125
X5.0675 I0.25 J0
X4.5675 I-0.25 J0
X4.58 Y0.875 I0.0125 J0
G1 X4.5862
G18 G2 X4.5987 Z-0.0825 I0 K0.0125
G0 Z0.1
Y0.9
Z-0.02
G1 Z-0.0875 F24
G3 X4.5862 Z-0.1 I-0.0125 K0
G1 X4.58
G17 G3 X4.5675 Y0.8875 I0 J-0.0125
X5.0675 I0.25 J0
X4.5675 I-0.25 J0
X4.58 Y0.875 I0.0125 J0
G1 X4.5862
G18 G2 X4.5987 Z-0.0875 I0 K0.0125
G0 Z0.1
Y0.9
Z-0.025
G1 Z-0.0925 F24
G3 X4.5862 Z-0.105 I-0.0125 K0
G1 X4.58
G17 G3 X4.5675 Y0.8875 I0 J-0.0125
X5.0675 I0.25 J0
X4.5675 I-0.25 J0
X4.58 Y0.875 I0.0125 J0
G1 X4.5862
G18 G2 X4.5987 Z-0.0925 I0 K0.0125
G0 Z0.1
Y0.9
Z-0.03
G1 Z-0.0975 F24
G3 X4.5862 Z-0.11 I-0.0125 K0
G1 X4.58
G17 G3 X4.5675 Y0.8875 I0 J-0.0125
X5.0675 I0.25 J0
X4.5675 I-0.25 J0
X4.58 Y0.875 I0.0125 J0
G1 X4.5862
G18 G2 X4.5987 Z-0.0975 I0 K0.0125
G0 Z0.1
Y0.9
Z-0.035
G1 Z-0.1025 F24
G3 X4.5862 Z-0.115 I-0.0125 K0
G1 X4.58
G17 G3 X4.5675 Y0.8875 I0 J-0.0125
X5.0675 I0.25 J0
X4.5675 I-0.25 J0
X4.58 Y0.875 I0.0125 J0
G1 X4.5862
G18 G2 X4.5987 Z-0.1025 I0 K0.0125
G0 Z0.1
Y0.9
Z-0.04
G1 Z-0.1075 F24
G3 X4.5862 Z-0.12 I-0.0125 K0
G1 X4.58
G17 G3 X4.5675 Y0.8875 I0 J-0.0125
X5.0675 I0.25 J0
X4.5675 I-0.25 J0
X4.58 Y0.875 I0.0125 J0
G1 X4.5862
G18 G2 X4.5987 Z-0.1075 I0 K0.0125
G0 Z0.1
Y0.9
Z-0.045
G1 Z-0.1125 F24
G3 X4.5862 Z-0.125 I-0.0125 K0
G1 X4.58
G17 G3 X4.5675 Y0.8875 I0 J-0.0125
X5.0675 I0.25 J0
X4.5675 I-0.25 J0
X4.58 Y0.875 I0.0125 J0
G1 X4.5862
G18 G2 X4.5987 Z-0.1125 I0 K0.0125
G0 Z0.1
Y0.9
Z-0.05
G1 Z-0.1175 F24
G3 X4.5862 Z-0.13 I-0.0125 K0
G1 X4.58
G17 G3 X4.5675 Y0.8875 I0 J-0.0125
X5.0675 I0.25 J0
X4.5675 I-0.25 J0
X4.58 Y0.875 I0.0125 J0
G1 X4.5862
G18 G2 X4.5987 Z-0.1175 I0 K0.0125
G0 Z0.1
Y0.9
Z-0.055
G1 Z-0.1225 F24
G3 X4.5862 Z-0.135 I-0.0125 K0
G1 X4.58
G17 G3 X4.5675 Y0.8875 I0 J-0.0125
X5.0675 I0.25 J0
X4.5675 I-0.25 J0
X4.58 Y0.875 I0.0125 J0
G1 X4.5862
G18 G2 X4.5987 Z-0.1225 I0 K0.0125
G0 Z0.1
Y0.9
Z-0.06
G1 Z-0.1275 F24
G3 X4.5862 Z-0.14 I-0.0125 K0
G1 X4.58
G17 G3 X4.5675 Y0.8875 I0 J-0.0125
X5.0675 I0.25 J0
X4.5675 I-0.25 J0
X4.58 Y0.875 I0.0125 J0
G1 X4.5862
G18 G2 X4.5987 Z-0.1275 I0 K0.0125
G0 Z0.1
Y0.9
Z-0.065
G1 Z-0.1325 F24
G3 X4.5862 Z-0.145 I-0.0125 K0
G1 X4.58
G17 G3 X4.5675 Y0.8875 I0 J-0.0125
X5.0675 I0.25 J0
X4.5675 I-0.25 J0
X4.58 Y0.875 I0.0125 J0
G1 X4.5862
G18 G2 X4.5987 Z-0.1325 I0 K0.0125
G0 Z0.1
Y0.9
Z-0.07
G1 Z-0.1375 F24
G3 X4.5862 Z-0.15 I-0.0125 K0
G1 X4.58
G17 G3 X4.5675 Y0.8875 I0 J-0.0125
X5.0675 I0.25 J0
X4.5675 I-0.25 J0
X4.58 Y0.875 I0.0125 J0
G1 X4.5862
G18 G2 X4.5987 Z-0.1375 I0 K0.0125
G0 Z0.1
Y0.9
Z-0.075
G1 Z-0.1425 F24
G3 X4.5862 Z-0.155 I-0.0125 K0
G1 X4.58
G17 G3 X4.5675 Y0.8875 I0 J-0.0125
X5.0675 I0.25 J0
X4.5675 I-0.25 J0
X4.58 Y0.875 I0.0125 J0
G1 X4.5862
G18 G2 X4.5987 Z-0.1425 I0 K0.0125
G0 Z0.1
Y0.9
Z-0.08
G1 Z-0.1475 F24
G3 X4.5862 Z-0.16 I-0.0125 K0
G1 X4.58
G17 G3 X4.5675 Y0.8875 I0 J-0.0125
X5.0675 I0.25 J0
X4.5675 I-0.25 J0
X4.58 Y0.875 I0.0125 J0
G1 X4.5862
G18 G2 X4.5987 Z-0.1475 I0 K0.0125
G0 Z0.1
Y0.9
Z-0.085
G1 Z-0.1525 F24
G3 X4.5862 Z-0.165 I-0.0125 K0
G1 X4.58
G17 G3 X4.5675 Y0.8875 I0 J-0.0125
X5.0675 I0.25 J0
X4.5675 I-0.25 J0
X4.58 Y0.875 I0.0125 J0
G1 X4.5862
G18 G2 X4.5987 Z-0.1525 I0 K0.0125
G0 Z0.1
Y0.9
Z-0.09
G1 Z-0.1575 F24
G3 X4.5862 Z-0.17 I-0.0125 K0
G1 X4.58
G17 G3 X4.5675 Y0.8875 I0 J-0.0125
X5.0675 I0.25 J0
X4.5675 I-0.25 J0
X4.58 Y0.875 I0.0125 J0
G1 X4.5862
G18 G2 X4.5987 Z-0.1575 I0 K0.0125
G0 Z0.1
Y0.9
Z-0.095
G1 Z-0.1625 F24
G3 X4.5862 Z-0.175 I-0.0125 K0
G1 X4.58
G17 G3 X4.5675 Y0.8875 I0 J-0.0125
X5.0675 I0.25 J0
X4.5675 I-0.25 J0
X4.58 Y0.875 I0.0125 J0
G1 X4.5862
G18 G2 X4.5987 Z-0.1625 I0 K0.0125
G0 Z0.1
Y0.9
Z-0.1
G1 Z-0.1675 F24
G3 X4.5862 Z-0.18 I-0.0125 K0
G1 X4.58
G17 G3 X4.5675 Y0.8875 I0 J-0.0125
X5.0675 I0.25 J0
X4.5675 I-0.25 J0
X4.58 Y0.875 I0.0125 J0
G1 X4.5862
G18 G2 X4.5987 Z-0.1675 I0 K0.0125
G0 Z0.1
Y0.9
Z-0.105
G1 Z-0.1725 F24
G3 X4.5862 Z-0.185 I-0.0125 K0
G1 X4.58
G17 G3 X4.5675 Y0.8875 I0 J-0.0125
X5.0675 I0.25 J0
X4.5675 I-0.25 J0
X4.58 Y0.875 I0.0125 J0
G1 X4.5862
G18 G2 X4.5987 Z-0.1725 I0 K0.0125
G0 Z0.1
Y0.9
Z-0.11
G1 Z-0.1775 F24
G3 X4.5862 Z-0.19 I-0.0125 K0
G1 X4.58
G17 G3 X4.5675 Y0.8875 I0 J-0.0125
X5.0675 I0.25 J0
X4.5675 I-0.25 J0
X4.58 Y0.875 I0.0125 J0
G1 X4.5862
G18 G2 X4.5987 Z-0.1775 I0 K0.0125
G0 Z0.1
Y0.9
Z-0.115
G1 Z-0.1825 F24
G3 X4.5862 Z-0.195 I-0.0125 K0
G1 X4.58
G17 G3 X4.5675 Y0.8875 I0 J-0.0125
X5.0675 I0.25 J0
X4.5675 I-0.25 J0
X4.58 Y0.875 I0.0125 J0
G1 X4.5862
G18 G2 X4.5987 Z-0.1825 I0 K0.0125
G0 Z0.1
Y0.9
Z-0.12
G1 Z-0.1875 F24
G3 X4.5862 Z-0.2 I-0.0125 K0
G1 X4.58
G17 G3 X4.5675 Y0.8875 I0 J-0.0125
X5.0675 I0.25 J0
X4.5675 I-0.25 J0
X4.58 Y0.875 I0.0125 J0
G1 X4.5862
G18 G2 X4.5987 Z-0.1875 I0 K0.0125
G0 Z0.1
Y0.9
Z-0.125
G1 Z-0.1925 F24
G3 X4.5862 Z-0.205 I-0.0125 K0
G1 X4.58
G17 G3 X4.5675 Y0.8875 I0 J-0.0125
X5.0675 I0.25 J0
X4.5675 I-0.25 J0
X4.58 Y0.875 I0.0125 J0
G1 X4.5862
G18 G2 X4.5987 Z-0.1925 I0 K0.0125
G0 Z0.1
Y0.9
Z-0.13
G1 Z-0.1975 F24
G3 X4.5862 Z-0.21 I-0.0125 K0
G1 X4.58
G17 G3 X4.5675 Y0.8875 I0 J-0.0125
X5.0675 I0.25 J0
X4.5675 I-0.25 J0
X4.58 Y0.875 I0.0125 J0
G1 X4.5862
G18 G2 X4.5987 Z-0.1975 I0 K0.0125
G0 Z0.1
Y0.9
Z-0.135
G1 Z-0.2025 F24
G3 X4.5862 Z-0.215 I-0.0125 K0
G1 X4.58
G17 G3 X4.5675 Y0.8875 I0 J-0.0125
X5.0675 I0.25 J0
X4.5675 I-0.25 J0
X4.58 Y0.875 I0.0125 J0
G1 X4.5862
G18 G2 X4.5987 Z-0.2025 I0 K0.0125
G0 Z0.1
Y0.9
Z-0.14
G1 Z-0.2075 F24
G3 X4.5862 Z-0.22 I-0.0125 K0
G1 X4.58
G17 G3 X4.5675 Y0.8875 I0 J-0.0125
X5.0675 I0.25 J0
X4.5675 I-0.25 J0
X4.58 Y0.875 I0.0125 J0
G1 X4.5862
G18 G2 X4.5987 Z-0.2075 I0 K0.0125
G0 Z0.1
Y0.9
Z-0.145
G1 Z-0.2125 F24
G3 X4.5862 Z-0.225 I-0.0125 K0
G1 X4.58
G17 G3 X4.5675 Y0.8875 I0 J-0.0125
X5.0675 I0.25 J0
X4.5675 I-0.25 J0
X4.58 Y0.875 I0.0125 J0
G1 X4.5862
G18 G2 X4.5987 Z-0.2125 I0 K0.0125
G0 Z0.1
Y0.9
Z-0.15
G1 Z-0.2175 F24
G3 X4.5862 Z-0.23 I-0.0125 K0
G1 X4.58
G17 G3 X4.5675 Y0.8875 I0 J-0.0125
X5.0675 I0.25 J0
X4.5675 I-0.25 J0
X4.58 Y0.875 I0.0125 J0
G1 X4.5862
G18 G2 X4.5987 Z-0.2175 I0 K0.0125
G0 Z0.1
Y0.9
Z-0.155
G1 Z-0.2225 F24
G3 X4.5862 Z-0.235 I-0.0125 K0
G1 X4.58
G17 G3 X4.5675 Y0.8875 I0 J-0.0125
X5.0675 I0.25 J0
X4.5675 I-0.25 J0
X4.58 Y0.875 I0.0125 J0
G1 X4.5862
G18 G2 X4.5987 Z-0.2225 I0 K0.0125
G0 Z0.1
Y0.9
Z-0.16
G1 Z-0.2275 F24
G3 X4.5862 Z-0.24 I-0.0125 K0
G1 X4.58
G17 G3 X4.5675 Y0.8875 I0 J-0.0125
X5.0675 I0.25 J0
X4.5675 I-0.25 J0
X4.58 Y0.875 I0.0125 J0
G1 X4.5862
G18 G2 X4.5987 Z-0.2275 I0 K0.0125
G0 Z0.1
Y0.9
Z-0.165
G1 Z-0.2325 F24
G3 X4.5862 Z-0.245 I-0.0125 K0
G1 X4.58
G17 G3 X4.5675 Y0.8875 I0 J-0.0125
X5.0675 I0.25 J0
X4.5675 I-0.25 J0
X4.58 Y0.875 I0.0125 J0
G1 X4.5862
G18 G2 X4.5987 Z-0.2325 I0 K0.0125
G0 Z0.1
Y0.9
Z-0.17
G1 Z-0.2375 F24
G3 X4.5862 Z-0.25 I-0.0125 K0
G1 X4.58
G17 G3 X4.5675 Y0.8875 I0 J-0.0125
X5.0675 I0.25 J0
X4.5675 I-0.25 J0
X4.58 Y0.875 I0.0125 J0
G1 X4.5862
G18 G2 X4.5987 Z-0.2375 I0 K0.0125
G0 Z0.1
Y0.9
Z-0.175
G1 Z-0.2425 F24
G3 X4.5862 Z-0.255 I-0.0125 K0
G1 X4.58
G17 G3 X4.5675 Y0.8875 I0 J-0.0125
X5.0675 I0.25 J0
X4.5675 I-0.25 J0
X4.58 Y0.875 I0.0125 J0
G1 X4.5862
G18 G2 X4.5987 Z-0.2425 I0 K0.0125
G0 Z0.1
Y0.9
Z-0.18
G1 Z-0.2475 F24
G3 X4.5862 Z-0.26 I-0.0125 K0
G1 X4.58
G17 G3 X4.5675 Y0.8875 I0 J-0.0125
X5.0675 I0.25 J0
X4.5675 I-0.25 J0
X4.58 Y0.875 I0.0125 J0
G1 X4.5862
G18 G2 X4.5987 Z-0.2475 I0 K0.0125
G0 Z0.1
Y0.9
Z-0.185
G1 Z-0.2525 F24
G3 X4.5862 Z-0.265 I-0.0125 K0
G1 X4.58
G17 G3 X4.5675 Y0.8875 I0 J-0.0125
X5.0675 I0.25 J0
X4.5675 I-0.25 J0
X4.58 Y0.875 I0.0125 J0
G1 X4.5862
G18 G2 X4.5987 Z-0.2525 I0 K0.0125
G0 Z0.1
Y0.9
Z-0.19
G1 Z-0.2575 F24
G3 X4.5862 Z-0.27 I-0.0125 K0
G1 X4.58
G17 G3 X4.5675 Y0.8875 I0 J-0.0125
X5.0675 I0.25 J0
X4.5675 I-0.25 J0
X4.58 Y0.875 I0.0125 J0
G1 X4.5862
G18 G2 X4.5987 Z-0.2575 I0 K0.0125
G0 Z0.1
X5.4727
Z0.075
G1 Z0.0075 F24
G2 X5.4852 Z-0.005 I0.0125 K0
G1 X5.4915
G17 G3 X5.504 Y0.8875 I0 J0.0125
X5.381 I-0.0615 J0
X5.504 I0.0615 J0
X5.4915 Y0.9 I-0.0125 J0
G1 X5.4852
G18 G3 X5.4727 Z0.0075 I0 K0.0125
G0 Z0.1
Y0.875
Z0.07
G1 Z0.0025 F24
G2 X5.4852 Z-0.01 I0.0125 K0
G1 X5.4915
G17 G3 X5.504 Y0.8875 I0 J0.0125
X5.381 I-0.0615 J0
X5.504 I0.0615 J0
X5.4915 Y0.9 I-0.0125 J0
G1 X5.4852
G18 G3 X5.4727 Z0.0025 I0 K0.0125
G0 Z0.1
Y0.875
Z0.065
G1 Z-0.0025 F24
G2 X5.4852 Z-0.015 I0.0125 K0
G1 X5.4915
G17 G3 X5.504 Y0.8875 I0 J0.0125
X5.381 I-0.0615 J0
X5.504 I0.0615 J0
X5.4915 Y0.9 I-0.0125 J0
G1 X5.4852
G18 G3 X5.4727 Z-0.0025 I0 K0.0125
G0 Z0.1
Y0.875
Z0.06
G1 Z-0.0075 F24
G2 X5.4852 Z-0.02 I0.0125 K0
G1 X5.4915
G17 G3 X5.504 Y0.8875 I0 J0.0125
X5.381 I-0.0615 J0
X5.504 I0.0615 J0
X5.4915 Y0.9 I-0.0125 J0
G1 X5.4852
G18 G3 X5.4727 Z-0.0075 I0 K0.0125
G0 Z0.1
Y0.875
Z0.055
G1 Z-0.0125 F24
G2 X5.4852 Z-0.025 I0.0125 K0
G1 X5.4915
G17 G3 X5.504 Y0.8875 I0 J0.0125
X5.381 I-0.0615 J0
X5.504 I0.0615 J0
X5.4915 Y0.9 I-0.0125 J0
G1 X5.4852
G18 G3 X5.4727 Z-0.0125 I0 K0.0125
G0 Z0.1
Y0.875
Z0.05
G1 Z-0.0175 F24
G2 X5.4852 Z-0.03 I0.0125 K0
G1 X5.4915
G17 G3 X5.504 Y0.8875 I0 J0.0125
X5.381 I-0.0615 J0
X5.504 I0.0615 J0
X5.4915 Y0.9 I-0.0125 J0
G1 X5.4852
G18 G3 X5.4727 Z-0.0175 I0 K0.0125
G0 Z0.1
Y0.875
Z0.045
G1 Z-0.0225 F24
G2 X5.4852 Z-0.035 I0.0125 K0
G1 X5.4915
G17 G3 X5.504 Y0.8875 I0 J0.0125
X5.381 I-0.0615 J0
X5.504 I0.0615 J0
X5.4915 Y0.9 I-0.0125 J0
G1 X5.4852
G18 G3 X5.4727 Z-0.0225 I0 K0.0125
G0 Z0.1
Y0.875
Z0.04
G1 Z-0.0275 F24
G2 X5.4852 Z-0.04 I0.0125 K0
G1 X5.4915
G17 G3 X5.504 Y0.8875 I0 J0.0125
X5.381 I-0.0615 J0
X5.504 I0.0615 J0
X5.4915 Y0.9 I-0.0125 J0
G1 X5.4852
G18 G3 X5.4727 Z-0.0275 I0 K0.0125
G0 Z0.1
Y0.875
Z0.035
G1 Z-0.0325 F24
G2 X5.4852 Z-0.045 I0.0125 K0
G1 X5.4915
G17 G3 X5.504 Y0.8875 I0 J0.0125
X5.381 I-0.0615 J0
X5.504 I0.0615 J0
X5.4915 Y0.9 I-0.0125 J0
G1 X5.4852
G18 G3 X5.4727 Z-0.0325 I0 K0.0125
G0 Z0.1
Y0.875
Z0.03
G1 Z-0.0375 F24
G2 X5.4852 Z-0.05 I0.0125 K0
G1 X5.4915
G17 G3 X5.504 Y0.8875 I0 J0.0125
X5.381 I-0.0615 J0
X5.504 I0.0615 J0
X5.4915 Y0.9 I-0.0125 J0
G1 X5.4852
G18 G3 X5.4727 Z-0.0375 I0 K0.0125
G0 Z0.1
Y0.875
Z0.025
G1 Z-0.0425 F24
G2 X5.4852 Z-0.055 I0.0125 K0
G1 X5.4915
G17 G3 X5.504 Y0.8875 I0 J0.0125
X5.381 I-0.0615 J0
X5.504 I0.0615 J0
X5.4915 Y0.9 I-0.0125 J0
G1 X5.4852
G18 G3 X5.4727 Z-0.0425 I0 K0.0125
G0 Z0.1
Y0.875
Z0.02
G1 Z-0.0475 F24
G2 X5.4852 Z-0.06 I0.0125 K0
G1 X5.4915
G17 G3 X5.504 Y0.8875 I0 J0.0125
X5.381 I-0.0615 J0
X5.504 I0.0615 J0
X5.4915 Y0.9 I-0.0125 J0
G1 X5.4852
G18 G3 X5.4727 Z-0.0475 I0 K0.0125
G0 Z0.1
Y0.875
Z0.015
G1 Z-0.0525 F24
G2 X5.4852 Z-0.065 I0.0125 K0
G1 X5.4915
G17 G3 X5.504 Y0.8875 I0 J0.0125
X5.381 I-0.0615 J0
X5.504 I0.0615 J0
X5.4915 Y0.9 I-0.0125 J0
G1 X5.4852
G18 G3 X5.4727 Z-0.0525 I0 K0.0125
G0 Z0.1
Y0.875
Z0.01
G1 Z-0.0575 F24
G2 X5.4852 Z-0.07 I0.0125 K0
G1 X5.4915
G17 G3 X5.504 Y0.8875 I0 J0.0125
X5.381 I-0.0615 J0
X5.504 I0.0615 J0
X5.4915 Y0.9 I-0.0125 J0
G1 X5.4852
G18 G3 X5.4727 Z-0.0575 I0 K0.0125
G0 Z0.1
Y0.875
Z0.005
G1 Z-0.0625 F24
G2 X5.4852 Z-0.075 I0.0125 K0
G1 X5.4915
G17 G3 X5.504 Y0.8875 I0 J0.0125
X5.381 I-0.0615 J0
X5.504 I0.0615 J0
X5.4915 Y0.9 I-0.0125 J0
G1 X5.4852
G18 G3 X5.4727 Z-0.0625 I0 K0.0125
G0 Z0.1
Y0.875
Z0
G1 Z-0.0675 F24
G2 X5.4852 Z-0.08 I0.0125 K0
G1 X5.4915
G17 G3 X5.504 Y0.8875 I0 J0.0125
X5.381 I-0.0615 J0
X5.504 I0.0615 J0
X5.4915 Y0.9 I-0.0125 J0
G1 X5.4852
G18 G3 X5.4727 Z-0.0675 I0 K0.0125
G0 Z0.1
Y0.875
Z-0.005
G1 Z-0.0725 F24
G2 X5.4852 Z-0.085 I0.0125 K0
G1 X5.4915
G17 G3 X5.504 Y0.8875 I0 J0.0125
X5.381 I-0.0615 J0
X5.504 I0.0615 J0
X5.4915 Y0.9 I-0.0125 J0
G1 X5.4852
G18 G3 X5.4727 Z-0.0725 I0 K0.0125
G0 Z0.1
Y0.875
Z-0.01
G1 Z-0.0775 F24
G2 X5.4852 Z-0.09 I0.0125 K0
G1 X5.4915
G17 G3 X5.504 Y0.8875 I0 J0.0125
X5.381 I-0.0615 J0
X5.504 I0.0615 J0
X5.4915 Y0.9 I-0.0125 J0
G1 X5.4852
G18 G3 X5.4727 Z-0.0775 I0 K0.0125
G0 Z0.1
Y0.875
Z-0.015
G1 Z-0.0825 F24
G2 X5.4852 Z-0.095 I0.0125 K0
G1 X5.4915
G17 G3 X5.504 Y0.8875 I0 J0.0125
X5.381 I-0.0615 J0
X5.504 I0.0615 J0
X5.4915 Y0.9 I-0.0125 J0
G1 X5.4852
G18 G3 X5.4727 Z-0.0825 I0 K0.0125
G0 Z0.1
Y0.875
Z-0.02
G1 Z-0.0875 F24
G2 X5.4852 Z-0.1 I0.0125 K0
G1 X5.4915
G17 G3 X5.504 Y0.8875 I0 J0.0125
X5.381 I-0.0615 J0
X5.504 I0.0615 J0
X5.4915 Y0.9 I-0.0125 J0
G1 X5.4852
G18 G3 X5.4727 Z-0.0875 I0 K0.0125
G0 Z0.1
Y0.875
Z-0.025
G1 Z-0.0925 F24
G2 X5.4852 Z-0.105 I0.0125 K0
G1 X5.4915
G17 G3 X5.504 Y0.8875 I0 J0.0125
X5.381 I-0.0615 J0
X5.504 I0.0615 J0
X5.4915 Y0.9 I-0.0125 J0
G1 X5.4852
G18 G3 X5.4727 Z-0.0925 I0 K0.0125
G0 Z0.1
Y0.875
Z-0.03
G1 Z-0.0975 F24
G2 X5.4852 Z-0.11 I0.0125 K0
G1 X5.4915
G17 G3 X5.504 Y0.8875 I0 J0.0125
X5.381 I-0.0615 J0
X5.504 I0.0615 J0
X5.4915 Y0.9 I-0.0125 J0
G1 X5.4852
G18 G3 X5.4727 Z-0.0975 I0 K0.0125
G0 Z0.1
Y0.875
Z-0.035
G1 Z-0.1025 F24
G2 X5.4852 Z-0.115 I0.0125 K0
G1 X5.4915
G17 G3 X5.504 Y0.8875 I0 J0.0125
X5.381 I-0.0615 J0
X5.504 I0.0615 J0
X5.4915 Y0.9 I-0.0125 J0
G1 X5.4852
G18 G3 X5.4727 Z-0.1025 I0 K0.0125
G0 Z0.1
Y0.875
Z-0.04
G1 Z-0.1075 F24
G2 X5.4852 Z-0.12 I0.0125 K0
G1 X5.4915
G17 G3 X5.504 Y0.8875 I0 J0.0125
X5.381 I-0.0615 J0
X5.504 I0.0615 J0
X5.4915 Y0.9 I-0.0125 J0
G1 X5.4852
G18 G3 X5.4727 Z-0.1075 I0 K0.0125
G0 Z0.1
Y0.875
Z-0.045
G1 Z-0.1125 F24
G2 X5.4852 Z-0.125 I0.0125 K0
G1 X5.4915
G17 G3 X5.504 Y0.8875 I0 J0.0125
X5.381 I-0.0615 J0
X5.504 I0.0615 J0
X5.4915 Y0.9 I-0.0125 J0
G1 X5.4852
G18 G3 X5.4727 Z-0.1125 I0 K0.0125
G0 Z0.1
Y0.875
Z-0.05
G1 Z-0.1175 F24
G2 X5.4852 Z-0.13 I0.0125 K0
G1 X5.4915
G17 G3 X5.504 Y0.8875 I0 J0.0125
X5.381 I-0.0615 J0
X5.504 I0.0615 J0
X5.4915 Y0.9 I-0.0125 J0
G1 X5.4852
G18 G3 X5.4727 Z-0.1175 I0 K0.0125
G0 Z0.1
Y0.875
Z-0.055
G1 Z-0.1225 F24
G2 X5.4852 Z-0.135 I0.0125 K0
G1 X5.4915
G17 G3 X5.504 Y0.8875 I0 J0.0125
X5.381 I-0.0615 J0
X5.504 I0.0615 J0
X5.4915 Y0.9 I-0.0125 J0
G1 X5.4852
G18 G3 X5.4727 Z-0.1225 I0 K0.0125
G0 Z0.1
Y0.875
Z-0.06
G1 Z-0.1275 F24
G2 X5.4852 Z-0.14 I0.0125 K0
G1 X5.4915
G17 G3 X5.504 Y0.8875 I0 J0.0125
X5.381 I-0.0615 J0
X5.504 I0.0615 J0
X5.4915 Y0.9 I-0.0125 J0
G1 X5.4852
G18 G3 X5.4727 Z-0.1275 I0 K0.0125
G0 Z0.1
Y0.875
Z-0.065
G1 Z-0.1325 F24
G2 X5.4852 Z-0.145 I0.0125 K0
G1 X5.4915
G17 G3 X5.504 Y0.8875 I0 J0.0125
X5.381 I-0.0615 J0
X5.504 I0.0615 J0
X5.4915 Y0.9 I-0.0125 J0
G1 X5.4852
G18 G3 X5.4727 Z-0.1325 I0 K0.0125
G0 Z0.1
Y0.875
Z-0.07
G1 Z-0.1375 F24
G2 X5.4852 Z-0.15 I0.0125 K0
G1 X5.4915
G17 G3 X5.504 Y0.8875 I0 J0.0125
X5.381 I-0.0615 J0
X5.504 I0.0615 J0
X5.4915 Y0.9 I-0.0125 J0
G1 X5.4852
G18 G3 X5.4727 Z-0.1375 I0 K0.0125
G0 Z0.1
Y0.875
Z-0.075
G1 Z-0.1425 F24
G2 X5.4852 Z-0.155 I0.0125 K0
G1 X5.4915
G17 G3 X5.504 Y0.8875 I0 J0.0125
X5.381 I-0.0615 J0
X5.504 I0.0615 J0
X5.4915 Y0.9 I-0.0125 J0
G1 X5.4852
G18 G3 X5.4727 Z-0.1425 I0 K0.0125
G0 Z0.1
Y0.875
Z-0.08
G1 Z-0.1475 F24
G2 X5.4852 Z-0.16 I0.0125 K0
G1 X5.4915
G17 G3 X5.504 Y0.8875 I0 J0.0125
X5.381 I-0.0615 J0
X5.504 I0.0615 J0
X5.4915 Y0.9 I-0.0125 J0
G1 X5.4852
G18 G3 X5.4727 Z-0.1475 I0 K0.0125
G0 Z0.1
Y0.875
Z-0.085
G1 Z-0.1525 F24
G2 X5.4852 Z-0.165 I0.0125 K0
G1 X5.4915
G17 G3 X5.504 Y0.8875 I0 J0.0125
X5.381 I-0.0615 J0
X5.504 I0.0615 J0
X5.4915 Y0.9 I-0.0125 J0
G1 X5.4852
G18 G3 X5.4727 Z-0.1525 I0 K0.0125
G0 Z0.1
Y0.875
Z-0.09
G1 Z-0.1575 F24
G2 X5.4852 Z-0.17 I0.0125 K0
G1 X5.4915
G17 G3 X5.504 Y0.8875 I0 J0.0125
X5.381 I-0.0615 J0
X5.504 I0.0615 J0
X5.4915 Y0.9 I-0.0125 J0
G1 X5.4852
G18 G3 X5.4727 Z-0.1575 I0 K0.0125
G0 Z0.1
Y0.875
Z-0.095
G1 Z-0.1625 F24
G2 X5.4852 Z-0.175 I0.0125 K0
G1 X5.4915
G17 G3 X5.504 Y0.8875 I0 J0.0125
X5.381 I-0.0615 J0
X5.504 I0.0615 J0
X5.4915 Y0.9 I-0.0125 J0
G1 X5.4852
G18 G3 X5.4727 Z-0.1625 I0 K0.0125
G0 Z0.1
Y0.875
Z-0.1
G1 Z-0.1675 F24
G2 X5.4852 Z-0.18 I0.0125 K0
G1 X5.4915
G17 G3 X5.504 Y0.8875 I0 J0.0125
X5.381 I-0.0615 J0
X5.504 I0.0615 J0
X5.4915 Y0.9 I-0.0125 J0
G1 X5.4852
G18 G3 X5.4727 Z-0.1675 I0 K0.0125
G0 Z0.1
Y0.875
Z-0.105
G1 Z-0.1725 F24
G2 X5.4852 Z-0.185 I0.0125 K0
G1 X5.4915
G17 G3 X5.504 Y0.8875 I0 J0.0125
X5.381 I-0.0615 J0
X5.504 I0.0615 J0
X5.4915 Y0.9 I-0.0125 J0
G1 X5.4852
G18 G3 X5.4727 Z-0.1725 I0 K0.0125
G0 Z0.1
Y0.875
Z-0.11
G1 Z-0.1775 F24
G2 X5.4852 Z-0.19 I0.0125 K0
G1 X5.4915
G17 G3 X5.504 Y0.8875 I0 J0.0125
X5.381 I-0.0615 J0
X5.504 I0.0615 J0
X5.4915 Y0.9 I-0.0125 J0
G1 X5.4852
G18 G3 X5.4727 Z-0.1775 I0 K0.0125
G0 Z0.1
Y0.875
Z-0.115
G1 Z-0.1825 F24
G2 X5.4852 Z-0.195 I0.0125 K0
G1 X5.4915
G17 G3 X5.504 Y0.8875 I0 J0.0125
X5.381 I-0.0615 J0
X5.504 I0.0615 J0
X5.4915 Y0.9 I-0.0125 J0
G1 X5.4852
G18 G3 X5.4727 Z-0.1825 I0 K0.0125
G0 Z0.1
Y0.875
Z-0.12
G1 Z-0.1875 F24
G2 X5.4852 Z-0.2 I0.0125 K0
G1 X5.4915
G17 G3 X5.504 Y0.8875 I0 J0.0125
X5.381 I-0.0615 J0
X5.504 I0.0615 J0
X5.4915 Y0.9 I-0.0125 J0
G1 X5.4852
G18 G3 X5.4727 Z-0.1875 I0 K0.0125
G0 Z0.1
Y0.875
Z-0.125
G1 Z-0.1925 F24
G2 X5.4852 Z-0.205 I0.0125 K0
G1 X5.4915
G17 G3 X5.504 Y0.8875 I0 J0.0125
X5.381 I-0.0615 J0
X5.504 I0.0615 J0
X5.4915 Y0.9 I-0.0125 J0
G1 X5.4852
G18 G3 X5.4727 Z-0.1925 I0 K0.0125
G0 Z0.1
Y0.875
Z-0.13
G1 Z-0.1975 F24
G2 X5.4852 Z-0.21 I0.0125 K0
G1 X5.4915
G17 G3 X5.504 Y0.8875 I0 J0.0125
X5.381 I-0.0615 J0
X5.504 I0.0615 J0
X5.4915 Y0.9 I-0.0125 J0
G1 X5.4852
G18 G3 X5.4727 Z-0.1975 I0 K0.0125
G0 Z0.1
Y0.875
Z-0.135
G1 Z-0.2025 F24
G2 X5.4852 Z-0.215 I0.0125 K0
G1 X5.4915
G17 G3 X5.504 Y0.8875 I0 J0.0125
X5.381 I-0.0615 J0
X5.504 I0.0615 J0
X5.4915 Y0.9 I-0.0125 J0
G1 X5.4852
G18 G3 X5.4727 Z-0.2025 I0 K0.0125
G0 Z0.1
Y0.875
Z-0.14
G1 Z-0.2075 F24
G2 X5.4852 Z-0.22 I0.0125 K0
G1 X5.4915
G17 G3 X5.504 Y0.8875 I0 J0.0125
X5.381 I-0.0615 J0
X5.504 I0.0615 J0
X5.4915 Y0.9 I-0.0125 J0
G1 X5.4852
G18 G3 X5.4727 Z-0.2075 I0 K0.0125
G0 Z0.1
Y0.875
Z-0.145
G1 Z-0.2125 F24
G2 X5.4852 Z-0.225 I0.0125 K0
G1 X5.4915
G17 G3 X5.504 Y0.8875 I0 J0.0125
X5.381 I-0.0615 J0
X5.504 I0.0615 J0
X5.4915 Y0.9 I-0.0125 J0
G1 X5.4852
G18 G3 X5.4727 Z-0.2125 I0 K0.0125
G0 Z0.1
Y0.875
Z-0.15
G1 Z-0.2175 F24
G2 X5.4852 Z-0.23 I0.0125 K0
G1 X5.4915
G17 G3 X5.504 Y0.8875 I0 J0.0125
X5.381 I-0.0615 J0
X5.504 I0.0615 J0
X5.4915 Y0.9 I-0.0125 J0
G1 X5.4852
G18 G3 X5.4727 Z-0.2175 I0 K0.0125
G0 Z0.1
Y0.875
Z-0.155
G1 Z-0.2225 F24
G2 X5.4852 Z-0.235 I0.0125 K0
G1 X5.4915
G17 G3 X5.504 Y0.8875 I0 J0.0125
X5.381 I-0.0615 J0
X5.504 I0.0615 J0
X5.4915 Y0.9 I-0.0125 J0
G1 X5.4852
G18 G3 X5.4727 Z-0.2225 I0 K0.0125
G0 Z0.1
Y0.875
Z-0.16
G1 Z-0.2275 F24
G2 X5.4852 Z-0.24 I0.0125 K0
G1 X5.4915
G17 G3 X5.504 Y0.8875 I0 J0.0125
X5.381 I-0.0615 J0
X5.504 I0.0615 J0
X5.4915 Y0.9 I-0.0125 J0
G1 X5.4852
G18 G3 X5.4727 Z-0.2275 I0 K0.0125
G0 Z0.1
Y0.875
Z-0.165
G1 Z-0.2325 F24
G2 X5.4852 Z-0.245 I0.0125 K0
G1 X5.4915
G17 G3 X5.504 Y0.8875 I0 J0.0125
X5.381 I-0.0615 J0
X5.504 I0.0615 J0
X5.4915 Y0.9 I-0.0125 J0
G1 X5.4852
G18 G3 X5.4727 Z-0.2325 I0 K0.0125
G0 Z0.1
Y0.875
Z-0.17
G1 Z-0.2375 F24
G2 X5.4852 Z-0.25 I0.0125 K0
G1 X5.4915
G17 G3 X5.504 Y0.8875 I0 J0.0125
X5.381 I-0.0615 J0
X5.504 I0.0615 J0
X5.4915 Y0.9 I-0.0125 J0
G1 X5.4852
G18 G3 X5.4727 Z-0.2375 I0 K0.0125
G0 Z0.1
Y0.875
Z-0.175
G1 Z-0.2425 F24
G2 X5.4852 Z-0.255 I0.0125 K0
G1 X5.4915
G17 G3 X5.504 Y0.8875 I0 J0.0125
X5.381 I-0.0615 J0
X5.504 I0.0615 J0
X5.4915 Y0.9 I-0.0125 J0
G1 X5.4852
G18 G3 X5.4727 Z-0.2425 I0 K0.0125
G0 Z0.1
Y0.875
Z-0.18
G1 Z-0.2475 F24
G2 X5.4852 Z-0.26 I0.0125 K0
G1 X5.4915
G17 G3 X5.504 Y0.8875 I0 J0.0125
X5.381 I-0.0615 J0
X5.504 I0.0615 J0
X5.4915 Y0.9 I-0.0125 J0
G1 X5.4852
G18 G3 X5.4727 Z-0.2475 I0 K0.0125
G0 Z0.1
Y0.875
Z-0.185
G1 Z-0.2525 F24
G2 X5.4852 Z-0.265 I0.0125 K0
G1 X5.4915
G17 G3 X5.504 Y0.8875 I0 J0.0125
X5.381 I-0.0615 J0
X5.504 I0.0615 J0
X5.4915 Y0.9 I-0.0125 J0
G1 X5.4852
G18 G3 X5.4727 Z-0.2525 I0 K0.0125
G0 Z0.1
Y0.875
Z-0.1875
G1 Z-0.255 F24
G2 X5.4852 Z-0.2675 I0.0125 K0
G1 X5.4915
G17 G3 X5.504 Y0.8875 I0 J0.0125
X5.381 I-0.0615 J0
X5.504 I0.0615 J0
X5.4915 Y0.9 I-0.0125 J0
G1 X5.4852
G18 G3 X5.4727 Z-0.255 I0 K0.0125
G0 Z0.1
Y0.875
Z-0.19
G1 Z-0.2575 F24
G2 X5.4852 Z-0.27 I0.0125 K0
G1 X5.4915
G17 G3 X5.504 Y0.8875 I0 J0.0125
X5.381 I-0.0615 J0
X5.504 I0.0615 J0
X5.4915 Y0.9 I-0.0125 J0
G1 X5.4852
G18 G3 X5.4727 Z-0.2575 I0 K0.0125
G0 Z0.5
G17

(2D Contour6)
M7
G0 X4.2374 Y1.5625
Z0.5
Z0.1
G1 Z0.0444 F24
Z0.0075 F30
G18 G2 X4.2499 Z-0.005 I0.0125 K0
G1 X4.2624 F24
G17 G3 X4.2749 Y1.575 I0 J0.0125
G2 X4.3374 Y1.6375 I0.0625 J0
G1 X5.9424
G2 X6.0049 Y1.575 I0 J-0.0625
G1 Y0.2
G2 X5.9424 Y0.1375 I-0.0625 J0
G1 X0.2
G2 X0.1385 Y0.2109 I0 J0.0625
G1 X0.3809 Y1.5859
G2 X0.4424 Y1.6375 I0.0616 J-0.0109
G1 X4.0424
G2 X4.1049 Y1.575 I0 J-0.0625
G1 Y0.95
X4.2749
Y1.575
G3 X4.2624 Y1.5875 I-0.0125 J0
G1 X4.2499
G18 G3 X4.2374 Z0.0075 I0 K0.0125
G0 Z0.1
Y1.5625
G1 Z0.0394 F24
Z0.0025 F30
G2 X4.2499 Z-0.01 I0.0125 K0
G1 X4.2624 F24
G17 G3 X4.2749 Y1.575 I0 J0.0125
G2 X4.3374 Y1.6375 I0.0625 J0
G1 X5.9424
G2 X6.0049 Y1.575 I0 J-0.0625
G1 Y0.2
G2 X5.9424 Y0.1375 I-0.0625 J0
G1 X0.2
G2 X0.1385 Y0.2109 I0 J0.0625
G1 X0.3809 Y1.5859
G2 X0.4424 Y1.6375 I0.0616 J-0.0109
G1 X4.0424
G2 X4.1049 Y1.575 I0 J-0.0625
G1 Y0.95
X4.2749
Y1.575
G3 X4.2624 Y1.5875 I-0.0125 J0
G1 X4.2499
G18 G3 X4.2374 Z0.0025 I0 K0.0125
G0 Z0.1
Y1.5625
G1 Z0.0344 F24
Z-0.0025 F30
G2 X4.2499 Z-0.015 I0.0125 K0
G1 X4.2624 F24
G17 G3 X4.2749 Y1.575 I0 J0.0125
G2 X4.3374 Y1.6375 I0.0625 J0
G1 X5.9424
G2 X6.0049 Y1.575 I0 J-0.0625
G1 Y0.2
G2 X5.9424 Y0.1375 I-0.0625 J0
G1 X0.2
G2 X0.1385 Y0.2109 I0 J0.0625
G1 X0.3809 Y1.5859
G2 X0.4424 Y1.6375 I0.0616 J-0.0109
G1 X4.0424
G2 X4.1049 Y1.575 I0 J-0.0625
G1 Y0.95
X4.2749
Y1.575
G3 X4.2624 Y1.5875 I-0.0125 J0
G1 X4.2499
G18 G3 X4.2374 Z-0.0025 I0 K0.0125
G0 Z0.1
Y1.5625
G1 Z0.0294 F24
Z-0.0075 F30
G2 X4.2499 Z-0.02 I0.0125 K0
G1 X4.2624 F24
G17 G3 X4.2749 Y1.575 I0 J0.0125
G2 X4.3374 Y1.6375 I0.0625 J0
G1 X5.9424
G2 X6.0049 Y1.575 I0 J-0.0625
G1 Y0.2
G2 X5.9424 Y0.1375 I-0.0625 J0
G1 X0.2
G2 X0.1385 Y0.2109 I0 J0.0625
G1 X0.3809 Y1.5859
G2 X0.4424 Y1.6375 I0.0616 J-0.0109
G1 X4.0424
G2 X4.1049 Y1.575 I0 J-0.0625
G1 Y0.95
X4.2749
Y1.575
G3 X4.2624 Y1.5875 I-0.0125 J0
G1 X4.2499
G18 G3 X4.2374 Z-0.0075 I0 K0.0125
G0 Z0.1
Y1.5625
G1 Z0.0244 F24
Z-0.0125 F30
G2 X4.2499 Z-0.025 I0.0125 K0
G1 X4.2624 F24
G17 G3 X4.2749 Y1.575 I0 J0.0125
G2 X4.3374 Y1.6375 I0.0625 J0
G1 X5.9424
G2 X6.0049 Y1.575 I0 J-0.0625
G1 Y0.2
G2 X5.9424 Y0.1375 I-0.0625 J0
G1 X0.2
G2 X0.1385 Y0.2109 I0 J0.0625
G1 X0.3809 Y1.5859
G2 X0.4424 Y1.6375 I0.0616 J-0.0109
G1 X4.0424
G2 X4.1049 Y1.575 I0 J-0.0625
G1 Y0.95
X4.2749
Y1.575
G3 X4.2624 Y1.5875 I-0.0125 J0
G1 X4.2499
G18 G3 X4.2374 Z-0.0125 I0 K0.0125
G0 Z0.1
Y1.5625
G1 Z0.0194 F24
Z-0.0175 F30
G2 X4.2499 Z-0.03 I0.0125 K0
G1 X4.2624 F24
G17 G3 X4.2749 Y1.575 I0 J0.0125
G2 X4.3374 Y1.6375 I0.0625 J0
G1 X5.9424
G2 X6.0049 Y1.575 I0 J-0.0625
G1 Y0.2
G2 X5.9424 Y0.1375 I-0.0625 J0
G1 X0.2
G2 X0.1385 Y0.2109 I0 J0.0625
G1 X0.3809 Y1.5859
G2 X0.4424 Y1.6375 I0.0616 J-0.0109
G1 X4.0424
G2 X4.1049 Y1.575 I0 J-0.0625
G1 Y0.95
X4.2749
Y1.575
G3 X4.2624 Y1.5875 I-0.0125 J0
G1 X4.2499
G18 G3 X4.2374 Z-0.0175 I0 K0.0125
G0 Z0.1
Y1.5625
G1 Z0.0144 F24
Z-0.0225 F30
G2 X4.2499 Z-0.035 I0.0125 K0
G1 X4.2624 F24
G17 G3 X4.2749 Y1.575 I0 J0.0125
G2 X4.3374 Y1.6375 I0.0625 J0
G1 X5.9424
G2 X6.0049 Y1.575 I0 J-0.0625
G1 Y0.2
G2 X5.9424 Y0.1375 I-0.0625 J0
G1 X0.2
G2 X0.1385 Y0.2109 I0 J0.0625
G1 X0.3809 Y1.5859
G2 X0.4424 Y1.6375 I0.0616 J-0.0109
G1 X4.0424
G2 X4.1049 Y1.575 I0 J-0.0625
G1 Y0.95
X4.2749
Y1.575
G3 X4.2624 Y1.5875 I-0.0125 J0
G1 X4.2499
G18 G3 X4.2374 Z-0.0225 I0 K0.0125
G0 Z0.1
Y1.5625
G1 Z0.0094 F24
Z-0.0275 F30
G2 X4.2499 Z-0.04 I0.0125 K0
G1 X4.2624 F24
G17 G3 X4.2749 Y1.575 I0 J0.0125
G2 X4.3374 Y1.6375 I0.0625 J0
G1 X5.9424
G2 X6.0049 Y1.575 I0 J-0.0625
G1 Y0.2
G2 X5.9424 Y0.1375 I-0.0625 J0
G1 X0.2
G2 X0.1385 Y0.2109 I0 J0.0625
G1 X0.3809 Y1.5859
G2 X0.4424 Y1.6375 I0.0616 J-0.0109
G1 X4.0424
G2 X4.1049 Y1.575 I0 J-0.0625
G1 Y0.95
X4.2749
Y1.575
G3 X4.2624 Y1.5875 I-0.0125 J0
G1 X4.2499
G18 G3 X4.2374 Z-0.0275 I0 K0.0125
G0 Z0.1
Y1.5625
G1 Z0.0044 F24
Z-0.0325 F30
G2 X4.2499 Z-0.045 I0.0125 K0
G1 X4.2624 F24
G17 G3 X4.2749 Y1.575 I0 J0.0125
G2 X4.3374 Y1.6375 I0.0625 J0
G1 X5.9424
G2 X6.0049 Y1.575 I0 J-0.0625
G1 Y0.2
G2 X5.9424 Y0.1375 I-0.0625 J0
G1 X0.2
G2 X0.1385 Y0.2109 I0 J0.0625
G1 X0.3809 Y1.5859
G2 X0.4424 Y1.6375 I0.0616 J-0.0109
G1 X4.0424
G2 X4.1049 Y1.575 I0 J-0.0625
G1 Y0.95
X4.2749
Y1.575
G3 X4.2624 Y1.5875 I-0.0125 J0
G1 X4.2499
G18 G3 X4.2374 Z-0.0325 I0 K0.0125
G0 Z0.1
Y1.5625
G1 Z-0.0006 F24
Z-0.0375 F30
G2 X4.2499 Z-0.05 I0.0125 K0
G1 X4.2624 F24
G17 G3 X4.2749 Y1.575 I0 J0.0125
G2 X4.3374 Y1.6375 I0.0625 J0
G1 X5.9424
G2 X6.0049 Y1.575 I0 J-0.0625
G1 Y0.2
G2 X5.9424 Y0.1375 I-0.0625 J0
G1 X0.2
G2 X0.1385 Y0.2109 I0 J0.0625
G1 X0.3809 Y1.5859
G2 X0.4424 Y1.6375 I0.0616 J-0.0109
G1 X4.0424
G2 X4.1049 Y1.575 I0 J-0.0625
G1 Y0.95
X4.2749
Y1.575
G3 X4.2624 Y1.5875 I-0.0125 J0
G1 X4.2499
G18 G3 X4.2374 Z-0.0375 I0 K0.0125
G0 Z0.1
Y1.5625
G1 Z-0.0056 F24
Z-0.0425 F30
G2 X4.2499 Z-0.055 I0.0125 K0
G1 X4.2624 F24
G17 G3 X4.2749 Y1.575 I0 J0.0125
G2 X4.3374 Y1.6375 I0.0625 J0
G1 X5.9424
G2 X6.0049 Y1.575 I0 J-0.0625
G1 Y0.2
G2 X5.9424 Y0.1375 I-0.0625 J0
G1 X0.2
G2 X0.1385 Y0.2109 I0 J0.0625
G1 X0.3809 Y1.5859
G2 X0.4424 Y1.6375 I0.0616 J-0.0109
G1 X4.0424
G2 X4.1049 Y1.575 I0 J-0.0625
G1 Y0.95
X4.2749
Y1.575
G3 X4.2624 Y1.5875 I-0.0125 J0
G1 X4.2499
G18 G3 X4.2374 Z-0.0425 I0 K0.0125
G0 Z0.1
Y1.5625
G1 Z-0.0106 F24
Z-0.0475 F30
G2 X4.2499 Z-0.06 I0.0125 K0
G1 X4.2624 F24
G17 G3 X4.2749 Y1.575 I0 J0.0125
G2 X4.3374 Y1.6375 I0.0625 J0
G1 X5.9424
G2 X6.0049 Y1.575 I0 J-0.0625
G1 Y0.2
G2 X5.9424 Y0.1375 I-0.0625 J0
G1 X0.2
G2 X0.1385 Y0.2109 I0 J0.0625
G1 X0.3809 Y1.5859
G2 X0.4424 Y1.6375 I0.0616 J-0.0109
G1 X4.0424
G2 X4.1049 Y1.575 I0 J-0.0625
G1 Y0.95
X4.2749
Y1.575
G3 X4.2624 Y1.5875 I-0.0125 J0
G1 X4.2499
G18 G3 X4.2374 Z-0.0475 I0 K0.0125
G0 Z0.1
Y1.5625
G1 Z-0.0156 F24
Z-0.0525 F30
G2 X4.2499 Z-0.065 I0.0125 K0
G1 X4.2624 F24
G17 G3 X4.2749 Y1.575 I0 J0.0125
G2 X4.3374 Y1.6375 I0.0625 J0
G1 X5.9424
G2 X6.0049 Y1.575 I0 J-0.0625
G1 Y0.2
G2 X5.9424 Y0.1375 I-0.0625 J0
G1 X0.2
G2 X0.1385 Y0.2109 I0 J0.0625
G1 X0.3809 Y1.5859
G2 X0.4424 Y1.6375 I0.0616 J-0.0109
G1 X4.0424
G2 X4.1049 Y1.575 I0 J-0.0625
G1 Y0.95
X4.2749
Y1.575
G3 X4.2624 Y1.5875 I-0.0125 J0
G1 X4.2499
G18 G3 X4.2374 Z-0.0525 I0 K0.0125
G0 Z0.1
Y1.5625
G1 Z-0.0206 F24
Z-0.0575 F30
G2 X4.2499 Z-0.07 I0.0125 K0
G1 X4.2624 F24
G17 G3 X4.2749 Y1.575 I0 J0.0125
G2 X4.3374 Y1.6375 I0.0625 J0
G1 X5.9424
G2 X6.0049 Y1.575 I0 J-0.0625
G1 Y0.2
G2 X5.9424 Y0.1375 I-0.0625 J0
G1 X0.2
G2 X0.1385 Y0.2109 I0 J0.0625
G1 X0.3809 Y1.5859
G2 X0.4424 Y1.6375 I0.0616 J-0.0109
G1 X4.0424
G2 X4.1049 Y1.575 I0 J-0.0625
G1 Y0.95
X4.2749
Y1.575
G3 X4.2624 Y1.5875 I-0.0125 J0
G1 X4.2499
G18 G3 X4.2374 Z-0.0575 I0 K0.0125
G0 Z0.1
Y1.5625
G1 Z-0.0256 F24
Z-0.0625 F30
G2 X4.2499 Z-0.075 I0.0125 K0
G1 X4.2624 F24
G17 G3 X4.2749 Y1.575 I0 J0.0125
G2 X4.3374 Y1.6375 I0.0625 J0
G1 X5.9424
G2 X6.0049 Y1.575 I0 J-0.0625
G1 Y0.2
G2 X5.9424 Y0.1375 I-0.0625 J0
G1 X0.2
G2 X0.1385 Y0.2109 I0 J0.0625
G1 X0.3809 Y1.5859
G2 X0.4424 Y1.6375 I0.0616 J-0.0109
G1 X4.0424
G2 X4.1049 Y1.575 I0 J-0.0625
G1 Y0.95
X4.2749
Y1.575
G3 X4.2624 Y1.5875 I-0.0125 J0
G1 X4.2499
G18 G3 X4.2374 Z-0.0625 I0 K0.0125
G0 Z0.1
Y1.5625
G1 Z-0.0306 F24
Z-0.0675 F30
G2 X4.2499 Z-0.08 I0.0125 K0
G1 X4.2624 F24
G17 G3 X4.2749 Y1.575 I0 J0.0125
G2 X4.3374 Y1.6375 I0.0625 J0
G1 X5.9424
G2 X6.0049 Y1.575 I0 J-0.0625
G1 Y0.2
G2 X5.9424 Y0.1375 I-0.0625 J0
G1 X0.2
G2 X0.1385 Y0.2109 I0 J0.0625
G1 X0.3809 Y1.5859
G2 X0.4424 Y1.6375 I0.0616 J-0.0109
G1 X4.0424
G2 X4.1049 Y1.575 I0 J-0.0625
G1 Y0.95
X4.2749
Y1.575
G3 X4.2624 Y1.5875 I-0.0125 J0
G1 X4.2499
G18 G3 X4.2374 Z-0.0675 I0 K0.0125
G0 Z0.1
Y1.5625
G1 Z-0.0356 F24
Z-0.0725 F30
G2 X4.2499 Z-0.085 I0.0125 K0
G1 X4.2624 F24
G17 G3 X4.2749 Y1.575 I0 J0.0125
G2 X4.3374 Y1.6375 I0.0625 J0
G1 X5.9424
G2 X6.0049 Y1.575 I0 J-0.0625
G1 Y0.2
G2 X5.9424 Y0.1375 I-0.0625 J0
G1 X0.2
G2 X0.1385 Y0.2109 I0 J0.0625
G1 X0.3809 Y1.5859
G2 X0.4424 Y1.6375 I0.0616 J-0.0109
G1 X4.0424
G2 X4.1049 Y1.575 I0 J-0.0625
G1 Y0.95
X4.2749
Y1.575
G3 X4.2624 Y1.5875 I-0.0125 J0
G1 X4.2499
G18 G3 X4.2374 Z-0.0725 I0 K0.0125
G0 Z0.1
Y1.5625
G1 Z-0.0406 F24
Z-0.0775 F30
G2 X4.2499 Z-0.09 I0.0125 K0
G1 X4.2624 F24
G17 G3 X4.2749 Y1.575 I0 J0.0125
G2 X4.3374 Y1.6375 I0.0625 J0
G1 X5.9424
G2 X6.0049 Y1.575 I0 J-0.0625
G1 Y0.2
G2 X5.9424 Y0.1375 I-0.0625 J0
G1 X0.2
G2 X0.1385 Y0.2109 I0 J0.0625
G1 X0.3809 Y1.5859
G2 X0.4424 Y1.6375 I0.0616 J-0.0109
G1 X4.0424
G2 X4.1049 Y1.575 I0 J-0.0625
G1 Y0.95
X4.2749
Y1.575
G3 X4.2624 Y1.5875 I-0.0125 J0
G1 X4.2499
G18 G3 X4.2374 Z-0.0775 I0 K0.0125
G0 Z0.1
Y1.5625
G1 Z-0.0456 F24
Z-0.0825 F30
G2 X4.2499 Z-0.095 I0.0125 K0
G1 X4.2624 F24
G17 G3 X4.2749 Y1.575 I0 J0.0125
G2 X4.3374 Y1.6375 I0.0625 J0
G1 X5.9424
G2 X6.0049 Y1.575 I0 J-0.0625
G1 Y0.2
G2 X5.9424 Y0.1375 I-0.0625 J0
G1 X0.2
G2 X0.1385 Y0.2109 I0 J0.0625
G1 X0.3809 Y1.5859
G2 X0.4424 Y1.6375 I0.0616 J-0.0109
G1 X4.0424
G2 X4.1049 Y1.575 I0 J-0.0625
G1 Y0.95
X4.2749
Y1.575
G3 X4.2624 Y1.5875 I-0.0125 J0
G1 X4.2499
G18 G3 X4.2374 Z-0.0825 I0 K0.0125
G0 Z0.1
Y1.5625
G1 Z-0.0506 F24
Z-0.0875 F30
G2 X4.2499 Z-0.1 I0.0125 K0
G1 X4.2624 F24
G17 G3 X4.2749 Y1.575 I0 J0.0125
G2 X4.3374 Y1.6375 I0.0625 J0
G1 X5.9424
G2 X6.0049 Y1.575 I0 J-0.0625
G1 Y0.2
G2 X5.9424 Y0.1375 I-0.0625 J0
G1 X0.2
G2 X0.1385 Y0.2109 I0 J0.0625
G1 X0.3809 Y1.5859
G2 X0.4424 Y1.6375 I0.0616 J-0.0109
G1 X4.0424
G2 X4.1049 Y1.575 I0 J-0.0625
G1 Y0.95
X4.2749
Y1.575
G3 X4.2624 Y1.5875 I-0.0125 J0
G1 X4.2499
G18 G3 X4.2374 Z-0.0875 I0 K0.0125
G0 Z0.1
Y1.5625
G1 Z-0.0556 F24
Z-0.0925 F30
G2 X4.2499 Z-0.105 I0.0125 K0
G1 X4.2624 F24
G17 G3 X4.2749 Y1.575 I0 J0.0125
G2 X4.3374 Y1.6375 I0.0625 J0
G1 X5.9424
G2 X6.0049 Y1.575 I0 J-0.0625
G1 Y0.2
G2 X5.9424 Y0.1375 I-0.0625 J0
G1 X0.2
G2 X0.1385 Y0.2109 I0 J0.0625
G1 X0.3809 Y1.5859
G2 X0.4424 Y1.6375 I0.0616 J-0.0109
G1 X4.0424
G2 X4.1049 Y1.575 I0 J-0.0625
G1 Y0.95
X4.2749
Y1.575
G3 X4.2624 Y1.5875 I-0.0125 J0
G1 X4.2499
G18 G3 X4.2374 Z-0.0925 I0 K0.0125
G0 Z0.1
Y1.5625
G1 Z-0.0606 F24
Z-0.0975 F30
G2 X4.2499 Z-0.11 I0.0125 K0
G1 X4.2624 F24
G17 G3 X4.2749 Y1.575 I0 J0.0125
G2 X4.3374 Y1.6375 I0.0625 J0
G1 X5.9424
G2 X6.0049 Y1.575 I0 J-0.0625
G1 Y0.2
G2 X5.9424 Y0.1375 I-0.0625 J0
G1 X0.2
G2 X0.1385 Y0.2109 I0 J0.0625
G1 X0.3809 Y1.5859
G2 X0.4424 Y1.6375 I0.0616 J-0.0109
G1 X4.0424
G2 X4.1049 Y1.575 I0 J-0.0625
G1 Y0.95
X4.2749
Y1.575
G3 X4.2624 Y1.5875 I-0.0125 J0
G1 X4.2499
G18 G3 X4.2374 Z-0.0975 I0 K0.0125
G0 Z0.1
Y1.5625
G1 Z-0.0656 F24
Z-0.1025 F30
G2 X4.2499 Z-0.115 I0.0125 K0
G1 X4.2624 F24
G17 G3 X4.2749 Y1.575 I0 J0.0125
G2 X4.3374 Y1.6375 I0.0625 J0
G1 X5.9424
G2 X6.0049 Y1.575 I0 J-0.0625
G1 Y0.2
G2 X5.9424 Y0.1375 I-0.0625 J0
G1 X0.2
G2 X0.1385 Y0.2109 I0 J0.0625
G1 X0.3809 Y1.5859
G2 X0.4424 Y1.6375 I0.0616 J-0.0109
G1 X4.0424
G2 X4.1049 Y1.575 I0 J-0.0625
G1 Y0.95
X4.2749
Y1.575
G3 X4.2624 Y1.5875 I-0.0125 J0
G1 X4.2499
G18 G3 X4.2374 Z-0.1025 I0 K0.0125
G0 Z0.1
Y1.5625
G1 Z-0.0706 F24
Z-0.1075 F30
G2 X4.2499 Z-0.12 I0.0125 K0
G1 X4.2624 F24
G17 G3 X4.2749 Y1.575 I0 J0.0125
G2 X4.3374 Y1.6375 I0.0625 J0
G1 X5.9424
G2 X6.0049 Y1.575 I0 J-0.0625
G1 Y0.2
G2 X5.9424 Y0.1375 I-0.0625 J0
G1 X0.2
G2 X0.1385 Y0.2109 I0 J0.0625
G1 X0.3809 Y1.5859
G2 X0.4424 Y1.6375 I0.0616 J-0.0109
G1 X4.0424
G2 X4.1049 Y1.575 I0 J-0.0625
G1 Y0.95
X4.2749
Y1.575
G3 X4.2624 Y1.5875 I-0.0125 J0
G1 X4.2499
G18 G3 X4.2374 Z-0.1075 I0 K0.0125
G0 Z0.1
Y1.5625
G1 Z-0.0756 F24
Z-0.1125 F30
G2 X4.2499 Z-0.125 I0.0125 K0
G1 X4.2624 F24
G17 G3 X4.2749 Y1.575 I0 J0.0125
G2 X4.3374 Y1.6375 I0.0625 J0
G1 X5.9424
G2 X6.0049 Y1.575 I0 J-0.0625
G1 Y0.2
G2 X5.9424 Y0.1375 I-0.0625 J0
G1 X0.2
G2 X0.1385 Y0.2109 I0 J0.0625
G1 X0.3809 Y1.5859
G2 X0.4424 Y1.6375 I0.0616 J-0.0109
G1 X4.0424
G2 X4.1049 Y1.575 I0 J-0.0625
G1 Y0.95
X4.2749
Y1.575
G3 X4.2624 Y1.5875 I-0.0125 J0
G1 X4.2499
G18 G3 X4.2374 Z-0.1125 I0 K0.0125
G0 Z0.1
Y1.5625
G1 Z-0.0806 F24
Z-0.1175 F30
G2 X4.2499 Z-0.13 I0.0125 K0
G1 X4.2624 F24
G17 G3 X4.2749 Y1.575 I0 J0.0125
G2 X4.3374 Y1.6375 I0.0625 J0
G1 X5.9424
G2 X6.0049 Y1.575 I0 J-0.0625
G1 Y0.2
G2 X5.9424 Y0.1375 I-0.0625 J0
G1 X0.2
G2 X0.1385 Y0.2109 I0 J0.0625
G1 X0.3809 Y1.5859
G2 X0.4424 Y1.6375 I0.0616 J-0.0109
G1 X4.0424
G2 X4.1049 Y1.575 I0 J-0.0625
G1 Y0.95
X4.2749
Y1.575
G3 X4.2624 Y1.5875 I-0.0125 J0
G1 X4.2499
G18 G3 X4.2374 Z-0.1175 I0 K0.0125
G0 Z0.1
Y1.5625
G1 Z-0.0856 F24
Z-0.1225 F30
G2 X4.2499 Z-0.135 I0.0125 K0
G1 X4.2624 F24
G17 G3 X4.2749 Y1.575 I0 J0.0125
G2 X4.3374 Y1.6375 I0.0625 J0
G1 X5.9424
G2 X6.0049 Y1.575 I0 J-0.0625
G1 Y0.2
G2 X5.9424 Y0.1375 I-0.0625 J0
G1 X0.2
G2 X0.1385 Y0.2109 I0 J0.0625
G1 X0.3809 Y1.5859
G2 X0.4424 Y1.6375 I0.0616 J-0.0109
G1 X4.0424
G2 X4.1049 Y1.575 I0 J-0.0625
G1 Y0.95
X4.2749
Y1.575
G3 X4.2624 Y1.5875 I-0.0125 J0
G1 X4.2499
G18 G3 X4.2374 Z-0.1225 I0 K0.0125
G0 Z0.1
Y1.5625
G1 Z-0.0906 F24
Z-0.1275 F30
G2 X4.2499 Z-0.14 I0.0125 K0
G1 X4.2624 F24
G17 G3 X4.2749 Y1.575 I0 J0.0125
G2 X4.3374 Y1.6375 I0.0625 J0
G1 X5.9424
G2 X6.0049 Y1.575 I0 J-0.0625
G1 Y0.2
G2 X5.9424 Y0.1375 I-0.0625 J0
G1 X0.2
G2 X0.1385 Y0.2109 I0 J0.0625
G1 X0.3809 Y1.5859
G2 X0.4424 Y1.6375 I0.0616 J-0.0109
G1 X4.0424
G2 X4.1049 Y1.575 I0 J-0.0625
G1 Y0.95
X4.2749
Y1.575
G3 X4.2624 Y1.5875 I-0.0125 J0
G1 X4.2499
G18 G3 X4.2374 Z-0.1275 I0 K0.0125
G0 Z0.1
Y1.5625
G1 Z-0.0956 F24
Z-0.1325 F30
G2 X4.2499 Z-0.145 I0.0125 K0
G1 X4.2624 F24
G17 G3 X4.2749 Y1.575 I0 J0.0125
G2 X4.3374 Y1.6375 I0.0625 J0
G1 X5.9424
G2 X6.0049 Y1.575 I0 J-0.0625
G1 Y0.2
G2 X5.9424 Y0.1375 I-0.0625 J0
G1 X0.2
G2 X0.1385 Y0.2109 I0 J0.0625
G1 X0.3809 Y1.5859
G2 X0.4424 Y1.6375 I0.0616 J-0.0109
G1 X4.0424
G2 X4.1049 Y1.575 I0 J-0.0625
G1 Y0.95
X4.2749
Y1.575
G3 X4.2624 Y1.5875 I-0.0125 J0
G1 X4.2499
G18 G3 X4.2374 Z-0.1325 I0 K0.0125
G0 Z0.1
Y1.5625
G1 Z-0.1006 F24
Z-0.1375 F30
G2 X4.2499 Z-0.15 I0.0125 K0
G1 X4.2624 F24
G17 G3 X4.2749 Y1.575 I0 J0.0125
G2 X4.3374 Y1.6375 I0.0625 J0
G1 X5.9424
G2 X6.0049 Y1.575 I0 J-0.0625
G1 Y0.2
G2 X5.9424 Y0.1375 I-0.0625 J0
G1 X0.2
G2 X0.1385 Y0.2109 I0 J0.0625
G1 X0.3809 Y1.5859
G2 X0.4424 Y1.6375 I0.0616 J-0.0109
G1 X4.0424
G2 X4.1049 Y1.575 I0 J-0.0625
G1 Y0.95
X4.2749
Y1.575
G3 X4.2624 Y1.5875 I-0.0125 J0
G1 X4.2499
G18 G3 X4.2374 Z-0.1375 I0 K0.0125
G0 Z0.1
Y1.5625
G1 Z-0.1056 F24
Z-0.1425 F30
G2 X4.2499 Z-0.155 I0.0125 K0
G1 X4.2624 F24
G17 G3 X4.2749 Y1.575 I0 J0.0125
G2 X4.3374 Y1.6375 I0.0625 J0
G1 X5.9424
G2 X6.0049 Y1.575 I0 J-0.0625
G1 Y0.2
G2 X5.9424 Y0.1375 I-0.0625 J0
G1 X0.2
G2 X0.1385 Y0.2109 I0 J0.0625
G1 X0.3809 Y1.5859
G2 X0.4424 Y1.6375 I0.0616 J-0.0109
G1 X4.0424
G2 X4.1049 Y1.575 I0 J-0.0625
G1 Y0.95
X4.2749
Y1.575
G3 X4.2624 Y1.5875 I-0.0125 J0
G1 X4.2499
G18 G3 X4.2374 Z-0.1425 I0 K0.0125
G0 Z0.1
Y1.5625
G1 Z-0.1106 F24
Z-0.1475 F30
G2 X4.2499 Z-0.16 I0.0125 K0
G1 X4.2624 F24
G17 G3 X4.2749 Y1.575 I0 J0.0125
G2 X4.3374 Y1.6375 I0.0625 J0
G1 X5.9424
G2 X6.0049 Y1.575 I0 J-0.0625
G1 Y0.2
G2 X5.9424 Y0.1375 I-0.0625 J0
G1 X0.2
G2 X0.1385 Y0.2109 I0 J0.0625
G1 X0.3809 Y1.5859
G2 X0.4424 Y1.6375 I0.0616 J-0.0109
G1 X4.0424
G2 X4.1049 Y1.575 I0 J-0.0625
G1 Y0.95
X4.2749
Y1.575
G3 X4.2624 Y1.5875 I-0.0125 J0
G1 X4.2499
G18 G3 X4.2374 Z-0.1475 I0 K0.0125
G0 Z0.1
Y1.5625
G1 Z-0.1156 F24
Z-0.1525 F30
G2 X4.2499 Z-0.165 I0.0125 K0
G1 X4.2624 F24
G17 G3 X4.2749 Y1.575 I0 J0.0125
G2 X4.3374 Y1.6375 I0.0625 J0
G1 X5.9424
G2 X6.0049 Y1.575 I0 J-0.0625
G1 Y0.2
G2 X5.9424 Y0.1375 I-0.0625 J0
G1 X0.2
G2 X0.1385 Y0.2109 I0 J0.0625
G1 X0.3809 Y1.5859
G2 X0.4424 Y1.6375 I0.0616 J-0.0109
G1 X4.0424
G2 X4.1049 Y1.575 I0 J-0.0625
G1 Y0.95
X4.2749
Y1.575
G3 X4.2624 Y1.5875 I-0.0125 J0
G1 X4.2499
G18 G3 X4.2374 Z-0.1525 I0 K0.0125
G0 Z0.1
Y1.5625
G1 Z-0.1206 F24
Z-0.1575 F30
G2 X4.2499 Z-0.17 I0.0125 K0
G1 X4.2624 F24
G17 G3 X4.2749 Y1.575 I0 J0.0125
G2 X4.3374 Y1.6375 I0.0625 J0
G1 X5.9424
G2 X6.0049 Y1.575 I0 J-0.0625
G1 Y0.2
G2 X5.9424 Y0.1375 I-0.0625 J0
G1 X0.2
G2 X0.1385 Y0.2109 I0 J0.0625
G1 X0.3809 Y1.5859
G2 X0.4424 Y1.6375 I0.0616 J-0.0109
G1 X4.0424
G2 X4.1049 Y1.575 I0 J-0.0625
G1 Y0.95
X4.2749
Y1.575
G3 X4.2624 Y1.5875 I-0.0125 J0
G1 X4.2499
G18 G3 X4.2374 Z-0.1575 I0 K0.0125
G0 Z0.1
Y1.5625
G1 Z-0.1256 F24
Z-0.1625 F30
G2 X4.2499 Z-0.175 I0.0125 K0
G1 X4.2624 F24
G17 G3 X4.2749 Y1.575 I0 J0.0125
G2 X4.3374 Y1.6375 I0.0625 J0
G1 X5.9424
G2 X6.0049 Y1.575 I0 J-0.0625
G1 Y0.2
G2 X5.9424 Y0.1375 I-0.0625 J0
G1 X0.2
G2 X0.1385 Y0.2109 I0 J0.0625
G1 X0.3809 Y1.5859
G2 X0.4424 Y1.6375 I0.0616 J-0.0109
G1 X4.0424
G2 X4.1049 Y1.575 I0 J-0.0625
G1 Y0.95
X4.2749
Y1.575
G3 X4.2624 Y1.5875 I-0.0125 J0
G1 X4.2499
G18 G3 X4.2374 Z-0.1625 I0 K0.0125
G0 Z0.1
Y1.5625
G1 Z-0.1306 F24
Z-0.1675 F30
G2 X4.2499 Z-0.18 I0.0125 K0
G1 X4.2624 F24
G17 G3 X4.2749 Y1.575 I0 J0.0125
G2 X4.3374 Y1.6375 I0.0625 J0
G1 X5.9424
G2 X6.0049 Y1.575 I0 J-0.0625
G1 Y0.2
G2 X5.9424 Y0.1375 I-0.0625 J0
G1 X0.2
G2 X0.1385 Y0.2109 I0 J0.0625
G1 X0.3809 Y1.5859
G2 X0.4424 Y1.6375 I0.0616 J-0.0109
G1 X4.0424
G2 X4.1049 Y1.575 I0 J-0.0625
G1 Y0.95
X4.2749
Y1.575
G3 X4.2624 Y1.5875 I-0.0125 J0
G1 X4.2499
G18 G3 X4.2374 Z-0.1675 I0 K0.0125
G0 Z0.1
Y1.5625
G1 Z-0.1356 F24
Z-0.1725 F30
G2 X4.2499 Z-0.185 I0.0125 K0
G1 X4.2624 F24
G17 G3 X4.2749 Y1.575 I0 J0.0125
G2 X4.3374 Y1.6375 I0.0625 J0
G1 X5.9424
G2 X6.0049 Y1.575 I0 J-0.0625
G1 Y0.2
G2 X5.9424 Y0.1375 I-0.0625 J0
G1 X0.2
G2 X0.1385 Y0.2109 I0 J0.0625
G1 X0.3809 Y1.5859
G2 X0.4424 Y1.6375 I0.0616 J-0.0109
G1 X4.0424
G2 X4.1049 Y1.575 I0 J-0.0625
G1 Y0.95
X4.2749
Y1.575
G3 X4.2624 Y1.5875 I-0.0125 J0
G1 X4.2499
G18 G3 X4.2374 Z-0.1725 I0 K0.0125
G0 Z0.1
Y1.5625
G1 Z-0.1406 F24
Z-0.1775 F30
G2 X4.2499 Z-0.19 I0.0125 K0
G1 X4.2624 F24
G17 G3 X4.2749 Y1.575 I0 J0.0125
G2 X4.3374 Y1.6375 I0.0625 J0
G1 X5.9424
G2 X6.0049 Y1.575 I0 J-0.0625
G1 Y0.2
G2 X5.9424 Y0.1375 I-0.0625 J0
G1 X0.2
G2 X0.1385 Y0.2109 I0 J0.0625
G1 X0.3809 Y1.5859
G2 X0.4424 Y1.6375 I0.0616 J-0.0109
G1 X4.0424
G2 X4.1049 Y1.575 I0 J-0.0625
G1 Y0.95
X4.2749
Y1.575
G3 X4.2624 Y1.5875 I-0.0125 J0
G1 X4.2499
G18 G3 X4.2374 Z-0.1775 I0 K0.0125
G0 Z0.1
Y1.5625
G1 Z-0.1456 F24
Z-0.1825 F30
G2 X4.2499 Z-0.195 I0.0125 K0
G1 X4.2624 F24
G17 G3 X4.2749 Y1.575 I0 J0.0125
G2 X4.3374 Y1.6375 I0.0625 J0
G1 X5.9424
G2 X6.0049 Y1.575 I0 J-0.0625
G1 Y0.2
G2 X5.9424 Y0.1375 I-0.0625 J0
G1 X0.2
G2 X0.1385 Y0.2109 I0 J0.0625
G1 X0.3809 Y1.5859
G2 X0.4424 Y1.6375 I0.0616 J-0.0109
G1 X4.0424
G2 X4.1049 Y1.575 I0 J-0.0625
G1 Y0.95
X4.2749
Y1.575
G3 X4.2624 Y1.5875 I-0.0125 J0
G1 X4.2499
G18 G3 X4.2374 Z-0.1825 I0 K0.0125
G0 Z0.1
Y1.5625
G1 Z-0.1506 F24
Z-0.1875 F30
G2 X4.2499 Z-0.2 I0.0125 K0
G1 X4.2624 F24
G17 G3 X4.2749 Y1.575 I0 J0.0125
G2 X4.3374 Y1.6375 I0.0625 J0
G1 X5.9424
G2 X6.0049 Y1.575 I0 J-0.0625
G1 Y0.2
G2 X5.9424 Y0.1375 I-0.0625 J0
G1 X0.2
G2 X0.1385 Y0.2109 I0 J0.0625
G1 X0.3809 Y1.5859
G2 X0.4424 Y1.6375 I0.0616 J-0.0109
G1 X4.0424
G2 X4.1049 Y1.575 I0 J-0.0625
G1 Y0.95
X4.2749
Y1.575
G3 X4.2624 Y1.5875 I-0.0125 J0
G1 X4.2499
G18 G3 X4.2374 Z-0.1875 I0 K0.0125
G0 Z0.1
Y1.5625
G1 Z-0.1556 F24
Z-0.1925 F30
G2 X4.2499 Z-0.205 I0.0125 K0
G1 X4.2624 F24
G17 G3 X4.2749 Y1.575 I0 J0.0125
G2 X4.3374 Y1.6375 I0.0625 J0
G1 X5.9424
G2 X6.0049 Y1.575 I0 J-0.0625
G1 Y0.2
G2 X5.9424 Y0.1375 I-0.0625 J0
G1 X0.2
G2 X0.1385 Y0.2109 I0 J0.0625
G1 X0.3809 Y1.5859
G2 X0.4424 Y1.6375 I0.0616 J-0.0109
G1 X4.0424
G2 X4.1049 Y1.575 I0 J-0.0625
G1 Y0.95
X4.2749
Y1.575
G3 X4.2624 Y1.5875 I-0.0125 J0
G1 X4.2499
G18 G3 X4.2374 Z-0.1925 I0 K0.0125
G0 Z0.1
Y1.5625
G1 Z-0.1606 F24
Z-0.1975 F30
G2 X4.2499 Z-0.21 I0.0125 K0
G1 X4.2624 F24
G17 G3 X4.2749 Y1.575 I0 J0.0125
G2 X4.3374 Y1.6375 I0.0625 J0
G1 X5.9424
G2 X6.0049 Y1.575 I0 J-0.0625
G1 Y0.2
G2 X5.9424 Y0.1375 I-0.0625 J0
G1 X0.2
G2 X0.1385 Y0.2109 I0 J0.0625
G1 X0.3809 Y1.5859
G2 X0.4424 Y1.6375 I0.0616 J-0.0109
G1 X4.0424
G2 X4.1049 Y1.575 I0 J-0.0625
G1 Y0.95
X4.2749
Y1.575
G3 X4.2624 Y1.5875 I-0.0125 J0
G1 X4.2499
G18 G3 X4.2374 Z-0.1975 I0 K0.0125
G0 Z0.1
Y1.5625
G1 Z-0.1656 F24
Z-0.2025 F30
G2 X4.2499 Z-0.215 I0.0125 K0
G1 X4.2624 F24
G17 G3 X4.2749 Y1.575 I0 J0.0125
G2 X4.3374 Y1.6375 I0.0625 J0
G1 X5.9424
G2 X6.0049 Y1.575 I0 J-0.0625
G1 Y0.2
G2 X5.9424 Y0.1375 I-0.0625 J0
G1 X0.2
G2 X0.1385 Y0.2109 I0 J0.0625
G1 X0.3809 Y1.5859
G2 X0.4424 Y1.6375 I0.0616 J-0.0109
G1 X4.0424
G2 X4.1049 Y1.575 I0 J-0.0625
G1 Y0.95
X4.2749
Y1.575
G3 X4.2624 Y1.5875 I-0.0125 J0
G1 X4.2499
G18 G3 X4.2374 Z-0.2025 I0 K0.0125
G0 Z0.1
Y1.5625
G1 Z-0.1706 F24
Z-0.2075 F30
G2 X4.2499 Z-0.22 I0.0125 K0
G1 X4.2624 F24
G17 G3 X4.2749 Y1.575 I0 J0.0125
G2 X4.3374 Y1.6375 I0.0625 J0
G1 X5.9424
G2 X6.0049 Y1.575 I0 J-0.0625
G1 Y0.2
G2 X5.9424 Y0.1375 I-0.0625 J0
G1 X0.2
G2 X0.1385 Y0.2109 I0 J0.0625
G1 X0.3809 Y1.5859
G2 X0.4424 Y1.6375 I0.0616 J-0.0109
G1 X4.0424
G2 X4.1049 Y1.575 I0 J-0.0625
G1 Y0.95
X4.2749
Y1.575
G3 X4.2624 Y1.5875 I-0.0125 J0
G1 X4.2499
G18 G3 X4.2374 Z-0.2075 I0 K0.0125
G0 Z0.1
Y1.5625
G1 Z-0.1756 F24
Z-0.2125 F30
G2 X4.2499 Z-0.225 I0.0125 K0
G1 X4.2624 F24
G17 G3 X4.2749 Y1.575 I0 J0.0125
G2 X4.3374 Y1.6375 I0.0625 J0
G1 X5.9424
G2 X6.0049 Y1.575 I0 J-0.0625
G1 Y0.2
G2 X5.9424 Y0.1375 I-0.0625 J0
G1 X0.2
G2 X0.1385 Y0.2109 I0 J0.0625
G1 X0.3809 Y1.5859
G2 X0.4424 Y1.6375 I0.0616 J-0.0109
G1 X4.0424
G2 X4.1049 Y1.575 I0 J-0.0625
G1 Y0.95
X4.2749
Y1.575
G3 X4.2624 Y1.5875 I-0.0125 J0
G1 X4.2499
G18 G3 X4.2374 Z-0.2125 I0 K0.0125
G0 Z0.1
Y1.5625
G1 Z-0.1806 F24
Z-0.2175 F30
G2 X4.2499 Z-0.23 I0.0125 K0
G1 X4.2624 F24
G17 G3 X4.2749 Y1.575 I0 J0.0125
G2 X4.3374 Y1.6375 I0.0625 J0
G1 X5.9424
G2 X6.0049 Y1.575 I0 J-0.0625
G1 Y0.2
G2 X5.9424 Y0.1375 I-0.0625 J0
G1 X0.2
G2 X0.1385 Y0.2109 I0 J0.0625
G1 X0.3809 Y1.5859
G2 X0.4424 Y1.6375 I0.0616 J-0.0109
G1 X4.0424
G2 X4.1049 Y1.575 I0 J-0.0625
G1 Y0.95
X4.2749
Y1.575
G3 X4.2624 Y1.5875 I-0.0125 J0
G1 X4.2499
G18 G3 X4.2374 Z-0.2175 I0 K0.0125
G0 Z0.1
Y1.5625
G1 Z-0.1856 F24
Z-0.2225 F30
G2 X4.2499 Z-0.235 I0.0125 K0
G1 X4.2624 F24
G17 G3 X4.2749 Y1.575 I0 J0.0125
G2 X4.3374 Y1.6375 I0.0625 J0
G1 X5.9424
G2 X6.0049 Y1.575 I0 J-0.0625
G1 Y0.2
G2 X5.9424 Y0.1375 I-0.0625 J0
G1 X0.2
G2 X0.1385 Y0.2109 I0 J0.0625
G1 X0.3809 Y1.5859
G2 X0.4424 Y1.6375 I0.0616 J-0.0109
G1 X4.0424
G2 X4.1049 Y1.575 I0 J-0.0625
G1 Y0.95
X4.2749
Y1.575
G3 X4.2624 Y1.5875 I-0.0125 J0
G1 X4.2499
G18 G3 X4.2374 Z-0.2225 I0 K0.0125
G0 Z0.1
Y1.5625
